; generated by Slic3r 1.3.0 on 2020-02-12 at 23:01:00

; external perimeters extrusion width = 0.55mm (3.04mm^3/s)
; perimeters extrusion width = 0.70mm (7.88mm^3/s)
; infill extrusion width = 0.62mm (9.31mm^3/s)
; solid infill extrusion width = 0.70mm (2.63mm^3/s)
; top infill extrusion width = 0.70mm (1.97mm^3/s)

M107
M104 S200 ; set temperature
G28 ; home all axes
G1 Z5 F5000 ; lift nozzle

; Filament gcode

M109 S200 ; set temperature and wait for it to be reached
G21 ; set units to millimeters
G90 ; use absolute coordinates
M82 ; use absolute distances for extrusion
G92 E0
G1 Z0.350 F7800.000
G1 E-2.00000 F2400.00000
G92 E0
G1 X65.090 Y75.928 F7800.000
G1 E2.00000 F2400.00000
G1 F1800
G1 X66.843 Y74.449 E2.20854
G1 X68.995 Y73.656 E2.41708
G1 X70.175 Y73.550 E2.52479
G1 X129.825 Y73.550 E7.94874
G1 X132.084 Y73.947 E8.15729
G1 X134.072 Y75.090 E8.36583
G1 X135.551 Y76.843 E8.57437
G1 X136.344 Y78.995 E8.78291
G1 X136.450 Y80.175 E8.89062
G1 X136.450 Y119.825 E12.49598
G1 X136.053 Y122.084 E12.70452
G1 X134.910 Y124.072 E12.91306
G1 X133.157 Y125.551 E13.12161
G1 X131.005 Y126.344 E13.33015
G1 X129.825 Y126.450 E13.43786
G1 X70.175 Y126.450 E18.86181
G1 X67.916 Y126.053 E19.07035
G1 X65.928 Y124.910 E19.27889
G1 X64.449 Y123.157 E19.48743
G1 X63.656 Y121.005 E19.69598
G1 X63.550 Y119.825 E19.80369
G1 X63.550 Y80.175 E23.40904
G1 X63.947 Y77.916 E23.61759
G1 X65.053 Y75.993 E23.81931
G1 E21.81931 F2400.00000
G92 E0
G1 X115.100 Y103.600 F7800.000
G1 E2.00000 F2400.00000
G1 F1800
G1 X102.378 Y103.600 E3.15682
G1 X100.000 Y104.789 E3.39854
G1 X97.622 Y103.600 E3.64025
G1 X84.900 Y103.600 E4.79707
G1 X84.900 Y96.400 E5.45172
G1 X97.622 Y96.400 E6.60854
G1 X100.000 Y95.211 E6.85026
G1 X102.378 Y96.400 E7.09198
G1 X115.100 Y96.400 E8.24879
G1 X115.100 Y103.525 E8.89663
G1 X114.475 Y102.975 F7800.000
G1 F1800
G1 X102.230 Y102.975 E10.01004
G1 X100.000 Y104.090 E10.23676
G1 X97.770 Y102.975 E10.46348
G1 X85.525 Y102.975 E11.57689
G1 X85.525 Y97.025 E12.11790
G1 X97.770 Y97.025 E13.23131
G1 X100.000 Y95.910 E13.45803
G1 X102.230 Y97.025 E13.68475
G1 X114.475 Y97.025 E14.79816
G1 X114.475 Y102.900 E15.33235
G1 X113.850 Y102.350 F7800.000
G1 F1800
G1 X102.083 Y102.350 E16.40235
G1 X100.000 Y103.391 E16.61408
G1 X97.917 Y102.350 E16.82580
G1 X86.150 Y102.350 E17.89581
G1 X86.150 Y97.650 E18.32317
G1 X97.917 Y97.650 E19.39318
G1 X100.000 Y96.609 E19.60490
G1 X102.083 Y97.650 E19.81663
G1 X113.850 Y97.650 E20.88663
G1 X113.850 Y102.275 E21.30718
G1 X114.043 Y102.811 F7800.000
G1 E19.30718 F2400.00000
G92 E0
G1 X128.225 Y118.225 F7800.000
G1 E2.00000 F2400.00000
G1 F1800
G1 X71.775 Y118.225 E7.13302
G1 X71.775 Y81.775 E10.44744
G1 X128.225 Y81.775 E15.58045
G1 X128.225 Y118.150 E18.88806
G1 X128.850 Y118.850 F7800.000
G1 F1800
G1 X71.150 Y118.850 E24.13472
G1 X71.150 Y81.150 E27.56278
G1 X128.850 Y81.150 E32.80944
G1 X128.850 Y118.775 E36.23068
G1 X129.475 Y119.475 F7800.000
G1 F1800
G1 X70.525 Y119.475 E41.59098
G1 X70.525 Y80.525 E45.13269
G1 X129.475 Y80.525 E50.49299
G1 X129.475 Y119.400 E54.02788
G1 X128.984 Y119.378 F7800.000
G1 E52.02788 F2400.00000
G92 E0
G1 X127.357 Y117.843 F7800.000
G1 E2.00000 F2400.00000
G1 F1800
G1 X127.843 Y117.357 E2.06270
G1 X127.843 Y116.471 E2.14352
G1 X126.471 Y117.843 E2.32053
G1 X125.585 Y117.843 E2.40135
G1 X127.843 Y115.585 E2.69265
G1 X127.843 Y114.698 E2.77348
G1 X124.698 Y117.843 E3.17908
G1 X123.812 Y117.843 E3.25990
G1 X127.843 Y113.812 E3.77981
G1 X127.843 Y112.926 E3.86063
G1 X122.926 Y117.843 E4.49484
G1 X122.039 Y117.843 E4.57566
G1 X127.843 Y112.039 E5.32416
G1 X127.843 Y111.153 E5.40499
G1 X121.153 Y117.843 E6.26779
G1 X120.267 Y117.843 E6.34862
G1 X127.843 Y110.267 E7.32572
G1 X127.843 Y109.381 E7.40655
G1 X119.381 Y117.843 E8.49795
G1 X118.494 Y117.843 E8.57878
G1 X127.843 Y108.494 E9.78449
G1 X127.843 Y107.608 E9.86531
G1 X117.608 Y117.843 E11.18532
G1 X116.722 Y117.843 E11.26614
G1 X127.843 Y106.722 E12.70045
G1 X127.843 Y105.835 E12.78127
G1 X115.835 Y117.843 E14.32988
G1 X114.949 Y117.843 E14.41071
G1 X127.843 Y104.949 E16.07362
G1 X127.843 Y104.063 E16.15444
G1 X114.063 Y117.843 E17.93165
G1 X113.177 Y117.843 E18.01247
G1 X127.843 Y103.177 E19.90399
G1 X127.843 Y102.290 E19.98481
G1 X112.290 Y117.843 E21.99062
G1 X111.404 Y117.843 E22.07145
G1 X127.843 Y101.404 E24.19156
G1 X127.843 Y100.518 E24.27238
G1 X110.518 Y117.843 E26.50680
G1 X109.631 Y117.843 E26.58762
G1 X127.843 Y99.631 E28.93633
G1 X127.843 Y98.745 E29.01716
G1 X108.745 Y117.843 E31.48017
G1 X107.859 Y117.843 E31.56099
G1 X127.843 Y97.859 E34.13831
G1 X127.843 Y96.973 E34.21913
G1 X106.973 Y117.843 E36.91075
G1 X106.086 Y117.843 E36.99157
G1 X127.843 Y96.086 E39.79749
G1 X127.843 Y95.200 E39.87831
G1 X105.200 Y117.843 E42.79853
G1 X104.314 Y117.843 E42.87935
G1 X127.843 Y94.314 E45.91387
G1 X127.843 Y93.428 E45.99470
G1 X103.427 Y117.843 E49.14351
G1 X102.541 Y117.843 E49.22434
G1 X127.843 Y92.541 E52.48746
G1 X127.843 Y91.655 E52.56828
G1 X115.482 Y104.017 E54.16253
G1 X115.482 Y103.130 E54.24335
G1 X127.843 Y90.769 E55.83760
G1 X127.843 Y89.882 E55.91842
G1 X115.482 Y102.244 E57.51267
G1 X115.482 Y101.358 E57.59349
G1 X127.843 Y88.996 E59.18774
G1 X127.843 Y88.110 E59.26856
G1 X115.482 Y100.472 E60.86281
G1 X115.482 Y99.585 E60.94363
G1 X127.843 Y87.224 E62.53788
G1 X127.843 Y86.337 E62.61870
G1 X115.482 Y98.699 E64.21294
G1 X115.482 Y97.813 E64.29377
G1 X127.843 Y85.451 E65.88801
G1 X127.843 Y84.565 E65.96884
G1 X115.482 Y96.926 E67.56308
G1 X115.482 Y96.040 E67.64391
G1 X127.843 Y83.678 E69.23815
G1 X127.843 Y82.792 E69.31898
G1 X114.617 Y96.018 E71.02472
G1 X113.731 Y96.018 E71.10554
G1 X127.593 Y82.157 E72.89324
G1 X126.706 Y82.157 E72.97406
G1 X112.845 Y96.018 E74.76176
G1 X111.958 Y96.018 E74.84258
G1 X125.820 Y82.157 E76.63028
G1 X124.934 Y82.157 E76.71110
G1 X111.072 Y96.018 E78.49880
G1 X110.186 Y96.018 E78.57962
G1 X124.047 Y82.157 E80.36732
G1 X123.161 Y82.157 E80.44814
G1 X109.299 Y96.018 E82.23583
G1 X108.413 Y96.018 E82.31666
G1 X122.275 Y82.157 E84.10435
G1 X121.389 Y82.157 E84.18518
G1 X107.527 Y96.018 E85.97287
G1 X106.641 Y96.018 E86.05370
G1 X120.502 Y82.157 E87.84139
G1 X119.616 Y82.157 E87.92222
G1 X105.754 Y96.018 E89.70991
G1 X104.868 Y96.018 E89.79073
G1 X118.730 Y82.157 E91.57843
G1 X117.843 Y82.157 E91.65925
G1 X103.982 Y96.018 E93.44695
G1 X103.095 Y96.018 E93.52777
G1 X116.957 Y82.157 E95.31547
G1 X116.071 Y82.157 E95.39629
G1 X102.233 Y95.994 E97.18085
G1 X101.643 Y95.699 E97.24109
G1 X115.185 Y82.157 E98.98755
G1 X114.298 Y82.157 E99.06837
G1 X101.052 Y95.403 E100.77673
G1 X100.461 Y95.108 E100.83697
G1 X113.412 Y82.157 E102.50722
G1 X112.526 Y82.157 E102.58804
G1 X99.870 Y94.812 E104.22020
G1 X99.757 Y94.756 E104.23173
G1 X98.324 Y95.473 E104.37787
G1 X111.639 Y82.157 E106.09517
G1 X110.753 Y82.157 E106.17600
G1 X96.891 Y96.018 E107.96369
G1 X96.005 Y96.018 E108.04451
G1 X109.867 Y82.157 E109.83221
G1 X108.981 Y82.157 E109.91303
G1 X95.119 Y96.018 E111.70073
G1 X94.233 Y96.018 E111.78155
G1 X108.094 Y82.157 E113.56925
G1 X107.208 Y82.157 E113.65007
G1 X93.346 Y96.018 E115.43777
G1 X92.460 Y96.018 E115.51859
G1 X106.322 Y82.157 E117.30629
G1 X105.435 Y82.157 E117.38711
G1 X91.574 Y96.018 E119.17481
G1 X90.687 Y96.018 E119.25563
G1 X104.549 Y82.157 E121.04333
G1 X103.663 Y82.157 E121.12415
G1 X89.801 Y96.018 E122.91185
G1 X88.915 Y96.018 E122.99267
G1 X102.777 Y82.157 E124.78037
G1 X101.890 Y82.157 E124.86119
G1 X88.029 Y96.018 E126.64888
G1 X87.142 Y96.018 E126.72971
G1 X101.004 Y82.157 E128.51740
G1 X100.118 Y82.157 E128.59823
G1 X86.256 Y96.018 E130.38592
G1 X85.370 Y96.018 E130.46675
G1 X99.231 Y82.157 E132.25444
G1 X98.345 Y82.157 E132.33526
G1 X84.483 Y96.018 E134.12296
G1 X84.032 Y96.018 E134.16409
G1 X84.032 Y96.469 E134.20523
G1 X72.157 Y108.345 E135.73679
G1 X72.157 Y107.459 E135.81761
G1 X97.459 Y82.157 E139.08074
G1 X96.573 Y82.157 E139.16157
G1 X72.157 Y106.573 E142.31040
G1 X72.157 Y105.686 E142.39122
G1 X95.686 Y82.157 E145.42575
G1 X94.800 Y82.157 E145.50657
G1 X72.157 Y104.800 E148.42680
G1 X72.157 Y103.914 E148.50762
G1 X93.914 Y82.157 E151.31355
G1 X93.027 Y82.157 E151.39437
G1 X72.157 Y103.027 E154.08600
G1 X72.157 Y102.141 E154.16682
G1 X92.141 Y82.157 E156.74415
G1 X91.255 Y82.157 E156.82497
G1 X72.157 Y101.255 E159.28800
G1 X72.157 Y100.369 E159.36882
G1 X90.369 Y82.157 E161.71755
G1 X89.482 Y82.157 E161.79837
G1 X72.157 Y99.482 E164.03280
G1 X72.157 Y98.596 E164.11362
G1 X88.596 Y82.157 E166.23374
G1 X87.710 Y82.157 E166.31457
G1 X72.157 Y97.710 E168.32039
G1 X72.157 Y96.823 E168.40121
G1 X86.823 Y82.157 E170.29274
G1 X85.937 Y82.157 E170.37356
G1 X72.157 Y95.937 E172.15078
G1 X72.157 Y95.051 E172.23160
G1 X85.051 Y82.157 E173.89453
G1 X84.165 Y82.157 E173.97535
G1 X72.157 Y94.165 E175.52397
G1 X72.157 Y93.278 E175.60479
G1 X83.278 Y82.157 E177.03911
G1 X82.392 Y82.157 E177.11993
G1 X72.157 Y92.392 E178.43995
G1 X72.157 Y91.506 E178.52078
G1 X81.506 Y82.157 E179.72650
G1 X80.619 Y82.157 E179.80732
G1 X72.157 Y90.619 E180.89874
G1 X72.157 Y89.733 E180.97956
G1 X79.733 Y82.157 E181.95668
G1 X78.847 Y82.157 E182.03750
G1 X72.157 Y88.847 E182.90032
G1 X72.157 Y87.961 E182.98114
G1 X77.961 Y82.157 E183.72966
G1 X77.074 Y82.157 E183.81048
G1 X72.157 Y87.074 E184.44470
G1 X72.157 Y86.188 E184.52552
G1 X76.188 Y82.157 E185.04543
G1 X75.302 Y82.157 E185.12626
G1 X72.157 Y85.302 E185.53187
G1 X72.157 Y84.415 E185.61269
G1 X74.415 Y82.157 E185.90401
G1 X73.529 Y82.157 E185.98483
G1 X72.157 Y83.529 E186.16184
G1 X72.157 Y82.643 E186.24267
G1 X72.643 Y82.157 E186.30538
G1 E184.30538 F2400.00000
G92 E0
G1 X72.157 Y108.345 F7800.000
G1 E2.00000 F2400.00000
G1 F1800
G1 X72.157 Y109.231 E2.08082
G1 X84.518 Y96.870 E3.67507
G1 X84.518 Y97.756 E3.75589
G1 X72.157 Y110.118 E5.35014
G1 X72.157 Y111.004 E5.43096
G1 X84.518 Y98.642 E7.02521
G1 X84.518 Y99.529 E7.10603
G1 X72.157 Y111.890 E8.70028
G1 X72.157 Y112.777 E8.78110
G1 X84.518 Y100.415 E10.37535
G1 X84.518 Y101.301 E10.45617
G1 X72.157 Y113.663 E12.05042
G1 X72.157 Y114.549 E12.13124
G1 X84.518 Y102.187 E13.72549
G1 X84.518 Y103.074 E13.80631
G1 X72.157 Y115.435 E15.40056
G1 X72.157 Y116.322 E15.48138
G1 X84.518 Y103.960 E17.07563
G1 X84.518 Y103.982 E17.07760
G1 X85.383 Y103.982 E17.15645
G1 X72.157 Y117.208 E18.86220
G1 X72.157 Y117.843 E18.92015
G1 X72.408 Y117.843 E18.94303
G1 X86.269 Y103.982 E20.73072
G1 X87.156 Y103.982 E20.81154
G1 X73.294 Y117.843 E22.59924
G1 X74.180 Y117.843 E22.68006
G1 X88.042 Y103.982 E24.46776
G1 X88.928 Y103.982 E24.54858
G1 X75.066 Y117.843 E26.33628
G1 X75.953 Y117.843 E26.41710
G1 X89.814 Y103.982 E28.20480
G1 X90.701 Y103.982 E28.28562
G1 X76.839 Y117.843 E30.07332
G1 X77.725 Y117.843 E30.15414
G1 X91.587 Y103.982 E31.94184
G1 X92.473 Y103.982 E32.02266
G1 X78.612 Y117.843 E33.81036
G1 X79.498 Y117.843 E33.89118
G1 X93.360 Y103.982 E35.67888
G1 X94.246 Y103.982 E35.75970
G1 X80.384 Y117.843 E37.54739
G1 X81.270 Y117.843 E37.62822
G1 X95.132 Y103.982 E39.41591
G1 X96.018 Y103.982 E39.49674
G1 X82.157 Y117.843 E41.28443
G1 X83.043 Y117.843 E41.36526
G1 X96.905 Y103.982 E43.15295
G1 X97.718 Y103.982 E43.22711
G1 X97.767 Y104.006 E43.23208
G1 X83.929 Y117.843 E45.01663
G1 X84.816 Y117.843 E45.09745
G1 X98.357 Y104.301 E46.84390
G1 X98.948 Y104.597 E46.90415
G1 X85.702 Y117.843 E48.61250
G1 X86.588 Y117.843 E48.69332
G1 X99.539 Y104.892 E50.36357
G1 X100.130 Y105.188 E50.42381
G1 X87.474 Y117.843 E52.05597
G1 X88.361 Y117.843 E52.13679
G1 X101.677 Y104.527 E53.85410
G1 X102.768 Y103.982 E53.96539
G1 X103.109 Y103.982 E53.99644
G1 X89.247 Y117.843 E55.78414
G1 X90.133 Y117.843 E55.86496
G1 X103.995 Y103.982 E57.65266
G1 X104.881 Y103.982 E57.73348
G1 X91.020 Y117.843 E59.52118
G1 X91.906 Y117.843 E59.60200
G1 X105.768 Y103.982 E61.38970
G1 X106.654 Y103.982 E61.47052
G1 X92.792 Y117.843 E63.25822
G1 X93.678 Y117.843 E63.33904
G1 X107.540 Y103.982 E65.12673
G1 X108.426 Y103.982 E65.20756
G1 X94.565 Y117.843 E66.99525
G1 X95.451 Y117.843 E67.07608
G1 X109.313 Y103.982 E68.86377
G1 X110.199 Y103.982 E68.94460
G1 X96.337 Y117.843 E70.73229
G1 X97.224 Y117.843 E70.81311
G1 X111.085 Y103.982 E72.60081
G1 X111.972 Y103.982 E72.68163
G1 X98.110 Y117.843 E74.46933
G1 X98.996 Y117.843 E74.55015
G1 X112.858 Y103.982 E76.33785
G1 X113.744 Y103.982 E76.41867
G1 X99.882 Y117.843 E78.20637
G1 X100.769 Y117.843 E78.28719
G1 X114.630 Y103.982 E80.07489
G1 X115.517 Y103.982 E80.15571
G1 X101.655 Y117.843 E81.94341
G1 Z0.550 F7800.000
G1 X115.014 Y103.514 F7800.000
G1 F3600
G1 X102.357 Y103.514 E82.63492
G1 X100.000 Y104.693 E82.77893
G1 X97.643 Y103.514 E82.92293
G1 X84.986 Y103.514 E83.61445
G1 X84.986 Y96.486 E83.99845
G1 X97.643 Y96.486 E84.68997
G1 X100.000 Y95.307 E84.83398
G1 X102.357 Y96.486 E84.97798
G1 X115.014 Y96.486 E85.66950
G1 X115.014 Y103.439 E86.04940
G1 X114.357 Y102.857 F7800.000
G1 F3600
G1 X102.202 Y102.857 E86.71349
G1 X100.000 Y103.958 E86.84802
G1 X97.798 Y102.857 E86.98255
G1 X85.643 Y102.857 E87.64665
G1 X85.643 Y97.143 E87.95885
G1 X97.798 Y97.143 E88.62294
G1 X100.000 Y96.042 E88.75747
G1 X102.202 Y97.143 E88.89200
G1 X114.357 Y97.143 E89.55609
G1 X114.357 Y102.782 E89.86419
G1 X113.775 Y102.275 F7800.000
G1 F1800
G1 X102.065 Y102.275 E90.35794
G1 X100.000 Y103.307 E90.45528
G1 X97.935 Y102.275 E90.55262
G1 X86.225 Y102.275 E91.04636
G1 X86.225 Y97.725 E91.23821
G1 X97.935 Y97.725 E91.73195
G1 X100.000 Y96.693 E91.82929
G1 X102.065 Y97.725 E91.92663
G1 X113.775 Y97.725 E92.42037
G1 X113.775 Y102.200 E92.60906
G1 X113.970 Y102.736 F7800.000
G1 X128.036 Y118.036 F7800.000
G1 F3600
G1 X71.964 Y118.036 E95.67261
G1 X71.964 Y81.964 E97.64344
G1 X128.036 Y81.964 E100.70699
G1 X128.036 Y117.961 E102.67372
G1 X128.693 Y118.693 F7800.000
G1 F3600
G1 X71.307 Y118.693 E105.80908
G1 X71.307 Y81.307 E107.85170
G1 X128.693 Y81.307 E110.98706
G1 X128.693 Y118.618 E113.02559
G1 X129.275 Y119.275 F7800.000
G1 F1800
G1 X70.725 Y119.275 E115.49428
G1 X70.725 Y80.725 E117.11970
G1 X129.275 Y80.725 E119.58839
G1 X129.275 Y119.200 E121.21065
G1 X128.784 Y119.179 F7800.000
G1 X127.634 Y108.053 F7800.000
G1 F1200
G1 X115.416 Y95.834 E122.15800
G1 X115.416 Y96.767 E122.20912
G1 X127.634 Y108.985 E123.15647
G1 X127.634 Y109.918 E123.20759
G1 X115.416 Y97.699 E124.15494
G1 X115.416 Y98.632 E124.20606
G1 X127.634 Y110.850 E125.15341
G1 X127.634 Y111.783 E125.20454
G1 X115.416 Y99.564 E126.15189
G1 X115.416 Y100.497 E126.20301
G1 X127.634 Y112.715 E127.15036
G1 X127.634 Y113.648 E127.20148
G1 X115.416 Y101.429 E128.14883
G1 X115.416 Y102.361 E128.19995
G1 X127.634 Y114.580 E129.14730
G1 X127.634 Y115.513 E129.19842
G1 X115.416 Y103.294 E130.14578
G1 X115.416 Y103.916 E130.17987
G1 X115.105 Y103.916 E130.19690
G1 X127.634 Y116.445 E131.16833
G1 X127.634 Y117.377 E131.21945
G1 X114.173 Y103.916 E132.26318
G1 X113.240 Y103.916 E132.31431
G1 X126.959 Y117.634 E133.37796
G1 X126.026 Y117.634 E133.42908
G1 X112.308 Y103.916 E134.49273
G1 X111.375 Y103.916 E134.54385
G1 X125.094 Y117.634 E135.60750
G1 X124.161 Y117.634 E135.65862
G1 X110.443 Y103.916 E136.72227
G1 X109.510 Y103.916 E136.77339
G1 X123.229 Y117.634 E137.83704
G1 X122.297 Y117.634 E137.88817
G1 X108.578 Y103.916 E138.95182
G1 X107.645 Y103.916 E139.00294
G1 X121.364 Y117.634 E140.06659
G1 X120.432 Y117.634 E140.11771
G1 X106.713 Y103.916 E141.18136
G1 X105.781 Y103.916 E141.23248
G1 X119.499 Y117.634 E142.29613
G1 X118.567 Y117.634 E142.34725
G1 X104.848 Y103.916 E143.41090
G1 X103.916 Y103.916 E143.46203
G1 X117.634 Y117.634 E144.52568
G1 X116.702 Y117.634 E144.57680
G1 X102.983 Y103.916 E145.64045
G1 X102.257 Y103.916 E145.68026
G1 X102.120 Y103.984 E145.68869
G1 X115.769 Y117.634 E146.74701
G1 X114.837 Y117.634 E146.79813
G1 X101.498 Y104.295 E147.83236
G1 X100.876 Y104.606 E147.87046
G1 X113.905 Y117.634 E148.88058
G1 X112.972 Y117.634 E148.93170
G1 X100.255 Y104.917 E149.91773
G1 X99.744 Y105.172 E149.94900
G1 X99.410 Y105.005 E149.96950
G1 X112.040 Y117.634 E150.94871
G1 X111.107 Y117.634 E150.99983
G1 X97.545 Y104.072 E152.05133
G1 X97.232 Y103.916 E152.07054
G1 X96.456 Y103.916 E152.11307
