; generated by Slic3r 1.3.0 on 2020-03-28 at 01:06:48

; external perimeters extrusion width = 0.55mm (3.04mm^3/s)
; perimeters extrusion width = 0.70mm (7.88mm^3/s)
; infill extrusion width = 0.62mm (9.31mm^3/s)
; solid infill extrusion width = 0.70mm (2.63mm^3/s)
; top infill extrusion width = 0.70mm (1.97mm^3/s)

M107
M104 S200 ; set temperature
G28 ; home all axes
G1 Z5 F5000 ; lift nozzle

; Filament gcode

M109 S200 ; set temperature and wait for it to be reached
G21 ; set units to millimeters
G90 ; use absolute coordinates
M82 ; use absolute distances for extrusion
G92 E0
G1 Z0.350 F7800.000
G1 E-2.00000 F2400.00000
G92 E0
G1 X15.772 Y9.741 F7800.000
G1 E2.00000 F2400.00000
G1 F1800
G1 X16.915 Y7.753 E2.20854
G1 X18.668 Y6.274 E2.41708
G1 X20.820 Y5.481 E2.62563
G1 X22.000 Y5.375 E2.73334
G1 X78.000 Y5.375 E7.82539
G1 X80.259 Y5.772 E8.03393
G1 X82.247 Y6.915 E8.24248
G1 X83.726 Y8.668 E8.45102
G1 X84.519 Y10.820 E8.65956
G1 X84.625 Y12.000 E8.76727
G1 X84.625 Y88.000 E15.67792
G1 X84.228 Y90.259 E15.88646
G1 X83.085 Y92.247 E16.09500
G1 X81.332 Y93.726 E16.30355
G1 X79.180 Y94.519 E16.51209
G1 X78.000 Y94.625 E16.61980
G1 X22.000 Y94.625 E21.71185
G1 X19.741 Y94.228 E21.92040
G1 X17.753 Y93.085 E22.12894
G1 X16.274 Y91.332 E22.33748
G1 X15.481 Y89.180 E22.54602
G1 X15.375 Y88.000 E22.65373
G1 X15.375 Y12.000 E29.56438
G1 X15.759 Y9.815 E29.76610
G1 E27.76610 F2400.00000
G92 E0
G1 X46.400 Y76.400 F7800.000
G1 E2.00000 F2400.00000
G1 F1800
G1 X53.600 Y76.400 E2.65465
G1 X53.600 Y83.600 E3.30930
G1 X46.400 Y83.600 E3.96396
G1 X46.400 Y76.475 E4.61179
G1 X47.025 Y77.025 F7800.000
G1 F1800
G1 X52.975 Y77.025 E5.15280
G1 X52.975 Y82.975 E5.69381
G1 X47.025 Y82.975 E6.23482
G1 X47.025 Y77.100 E6.76901
G1 X47.650 Y77.650 F7800.000
G1 F1800
G1 X52.350 Y77.650 E7.19638
G1 X52.350 Y82.350 E7.62375
G1 X47.650 Y82.350 E8.05112
G1 X47.650 Y77.725 E8.47167
G1 X47.521 Y77.167 F7800.000
G1 E6.47167 F2400.00000
G92 E0
G1 X43.600 Y73.600 F7800.000
G1 E2.00000 F2400.00000
G1 F1800
G1 X56.400 Y73.600 E3.16394
G1 X56.400 Y86.400 E4.32788
G1 X43.600 Y86.400 E5.49182
G1 X43.600 Y73.675 E6.64894
G1 X42.975 Y72.975 F7800.000
G1 F1800
G1 X57.025 Y72.975 E7.92652
G1 X57.025 Y87.025 E9.20410
G1 X42.975 Y87.025 E10.48168
G1 X42.975 Y73.050 E11.75244
G1 X42.350 Y72.350 F7800.000
G1 F1800
G1 X57.650 Y72.350 E13.14366
G1 X57.650 Y87.650 E14.53489
G1 X42.350 Y87.650 E15.92611
G1 X42.350 Y72.425 E17.31051
G1 X42.833 Y72.479 F7800.000
G1 E15.31051 F2400.00000
G92 E0
G1 X44.468 Y73.982 F7800.000
G1 E2.00000 F2400.00000
G1 F1800
G1 X43.982 Y74.468 E2.06286
G1 X43.982 Y75.356 E2.14409
G1 X45.356 Y73.982 E2.32182
G1 X46.245 Y73.982 E2.40305
G1 X43.982 Y76.245 E2.69566
G1 X43.982 Y77.133 E2.77689
G1 X47.133 Y73.982 E3.18437
G1 X48.022 Y73.982 E3.26560
G1 X45.985 Y76.018 E3.52893
G1 X46.874 Y76.018 E3.61016
G1 X48.910 Y73.982 E3.87349
G1 X49.799 Y73.982 E3.95471
G1 X47.762 Y76.018 E4.21804
G1 X48.651 Y76.018 E4.29927
G1 X50.687 Y73.982 E4.56260
G1 X51.576 Y73.982 E4.64383
G1 X49.539 Y76.018 E4.90716
G1 X50.428 Y76.018 E4.98839
G1 X52.464 Y73.982 E5.25172
G1 X53.353 Y73.982 E5.33295
G1 X51.316 Y76.018 E5.59628
G1 X52.205 Y76.018 E5.67751
G1 X54.241 Y73.982 E5.94084
G1 X55.130 Y73.982 E6.02207
G1 X53.093 Y76.018 E6.28540
G1 X53.982 Y76.018 E6.36663
G1 X56.018 Y73.982 E6.62996
G1 X56.018 Y74.870 E6.71119
G1 X53.982 Y76.907 E6.97452
G1 X53.982 Y77.795 E7.05574
G1 X56.018 Y75.759 E7.31908
G1 X56.018 Y76.647 E7.40030
G1 X53.982 Y78.684 E7.66363
G1 X53.982 Y79.572 E7.74486
G1 X56.018 Y77.536 E8.00819
G1 X56.018 Y78.424 E8.08942
G1 X53.982 Y80.461 E8.35275
G1 X53.982 Y81.349 E8.43398
G1 X56.018 Y79.313 E8.69731
G1 X56.018 Y80.201 E8.77854
G1 X53.982 Y82.238 E9.04187
G1 X53.982 Y83.126 E9.12310
G1 X56.018 Y81.090 E9.38643
G1 X56.018 Y81.978 E9.46766
G1 X53.982 Y84.015 E9.73099
G1 E7.73099 F2400.00000
G92 E0
G1 X55.532 Y86.018 F7800.000
G1 E2.00000 F2400.00000
G1 F1800
G1 X56.018 Y85.532 E2.06286
G1 X56.018 Y84.644 E2.14409
G1 X54.644 Y86.018 E2.32182
G1 X53.755 Y86.018 E2.40305
G1 X56.018 Y83.755 E2.69566
G1 X56.018 Y82.867 E2.77688
G1 X52.867 Y86.018 E3.18437
G1 X51.978 Y86.018 E3.26559
G1 X54.015 Y83.982 E3.52892
G1 X53.126 Y83.982 E3.61015
G1 X51.090 Y86.018 E3.87348
G1 X50.201 Y86.018 E3.95471
G1 X52.238 Y83.982 E4.21804
G1 X51.349 Y83.982 E4.29927
G1 X49.313 Y86.018 E4.56260
G1 X48.424 Y86.018 E4.64383
G1 X50.461 Y83.982 E4.90716
G1 X49.572 Y83.982 E4.98839
G1 X47.536 Y86.018 E5.25172
G1 X46.647 Y86.018 E5.33295
G1 X48.684 Y83.982 E5.59628
G1 X47.795 Y83.982 E5.67751
G1 X45.759 Y86.018 E5.94084
G1 X44.870 Y86.018 E6.02206
G1 X46.907 Y83.982 E6.28540
G1 X46.018 Y83.982 E6.36662
G1 X43.982 Y86.018 E6.62995
G1 X43.982 Y85.130 E6.71118
G1 X46.018 Y83.093 E6.97451
G1 X46.018 Y82.205 E7.05574
G1 X43.982 Y84.241 E7.31907
G1 X43.982 Y83.353 E7.40030
G1 X46.018 Y81.316 E7.66363
G1 X46.018 Y80.428 E7.74486
G1 X43.982 Y82.464 E8.00819
G1 X43.982 Y81.576 E8.08942
G1 X46.018 Y79.539 E8.35275
G1 X46.018 Y78.651 E8.43398
G1 X43.982 Y80.687 E8.69731
G1 X43.982 Y79.799 E8.77854
G1 X46.018 Y77.762 E9.04187
G1 X46.018 Y76.874 E9.12309
G1 X43.982 Y78.910 E9.38643
G1 X43.982 Y78.022 E9.46765
G1 X46.018 Y75.985 E9.73098
G1 E7.73098 F2400.00000
G92 E0
G1 X46.400 Y63.600 F7800.000
G1 E2.00000 F2400.00000
G1 F1800
G1 X46.400 Y56.400 E2.65465
G1 X53.600 Y56.400 E3.30930
G1 X53.600 Y63.600 E3.96396
G1 X46.475 Y63.600 E4.61179
G1 X47.025 Y62.975 F7800.000
G1 F1800
G1 X47.025 Y57.025 E5.15280
G1 X52.975 Y57.025 E5.69381
G1 X52.975 Y62.975 E6.23482
G1 X47.100 Y62.975 E6.76901
G1 X47.650 Y62.350 F7800.000
G1 F1800
G1 X47.650 Y57.650 E7.19638
G1 X52.350 Y57.650 E7.62375
G1 X52.350 Y62.350 E8.05112
G1 X47.725 Y62.350 E8.47167
G1 X47.167 Y62.479 F7800.000
G1 E6.47167 F2400.00000
G92 E0
G1 X43.600 Y66.400 F7800.000
G1 E2.00000 F2400.00000
G1 F1800
G1 X43.600 Y53.600 E3.16394
G1 X56.400 Y53.600 E4.32788
G1 X56.400 Y66.400 E5.49182
G1 X43.675 Y66.400 E6.64894
G1 X42.975 Y67.025 F7800.000
G1 F1800
G1 X42.975 Y52.975 E7.92652
G1 X57.025 Y52.975 E9.20410
G1 X57.025 Y67.025 E10.48168
G1 X43.050 Y67.025 E11.75244
G1 X42.350 Y67.650 F7800.000
G1 F1800
G1 X42.350 Y52.350 E13.14366
G1 X57.650 Y52.350 E14.53489
G1 X57.650 Y67.650 E15.92611
G1 X42.425 Y67.650 E17.31051
G1 X42.479 Y67.167 F7800.000
G1 E15.31051 F2400.00000
G92 E0
G1 X53.982 Y64.015 F7800.000
G1 E2.00000 F2400.00000
G1 F1800
G1 X56.018 Y61.978 E2.26333
G1 X56.018 Y61.090 E2.34456
G1 X53.982 Y63.126 E2.60789
G1 X53.982 Y62.238 E2.68912
G1 X56.018 Y60.201 E2.95245
G1 X56.018 Y59.313 E3.03368
G1 X53.982 Y61.349 E3.29701
G1 X53.982 Y60.461 E3.37824
G1 X56.018 Y58.424 E3.64157
G1 X56.018 Y57.536 E3.72280
G1 X53.982 Y59.572 E3.98613
G1 X53.982 Y58.684 E4.06735
G1 X56.018 Y56.647 E4.33069
G1 X56.018 Y55.759 E4.41191
G1 X53.982 Y57.795 E4.67524
G1 X53.982 Y56.907 E4.75647
G1 X56.018 Y54.870 E5.01980
G1 X56.018 Y53.982 E5.10103
G1 X53.982 Y56.018 E5.36436
G1 X53.093 Y56.018 E5.44559
G1 X55.130 Y53.982 E5.70892
G1 X54.241 Y53.982 E5.79015
G1 X52.205 Y56.018 E6.05348
G1 X51.316 Y56.018 E6.13471
G1 X53.353 Y53.982 E6.39804
G1 X52.464 Y53.982 E6.47927
G1 X50.428 Y56.018 E6.74260
G1 X49.539 Y56.018 E6.82383
G1 X51.576 Y53.982 E7.08716
G1 X50.687 Y53.982 E7.16839
G1 X48.651 Y56.018 E7.43172
G1 X47.762 Y56.018 E7.51295
G1 X49.799 Y53.982 E7.77628
G1 X48.910 Y53.982 E7.85750
G1 X46.874 Y56.018 E8.12084
G1 X45.985 Y56.018 E8.20206
G1 X48.022 Y53.982 E8.46539
G1 X47.133 Y53.982 E8.54662
G1 X43.982 Y57.133 E8.95410
G1 X43.982 Y56.245 E9.03533
G1 X46.245 Y53.982 E9.32794
G1 X45.356 Y53.982 E9.40917
G1 X43.982 Y55.356 E9.58690
G1 X43.982 Y54.468 E9.66813
G1 X44.468 Y53.982 E9.73099
G1 E7.73099 F2400.00000
G92 E0
G1 X46.018 Y55.985 F7800.000
G1 E2.00000 F2400.00000
G1 F1800
G1 X43.982 Y58.022 E2.26333
G1 X43.982 Y58.910 E2.34456
G1 X46.018 Y56.874 E2.60789
G1 X46.018 Y57.762 E2.68912
G1 X43.982 Y59.799 E2.95245
G1 X43.982 Y60.687 E3.03368
G1 X46.018 Y58.651 E3.29701
G1 X46.018 Y59.539 E3.37824
G1 X43.982 Y61.576 E3.64157
G1 X43.982 Y62.464 E3.72279
G1 X46.018 Y60.428 E3.98613
G1 X46.018 Y61.316 E4.06735
G1 X43.982 Y63.353 E4.33068
G1 X43.982 Y64.241 E4.41191
G1 X46.018 Y62.205 E4.67524
G1 X46.018 Y63.093 E4.75647
G1 X43.982 Y65.130 E5.01980
G1 X43.982 Y66.018 E5.10103
G1 X46.018 Y63.982 E5.36436
G1 X46.907 Y63.982 E5.44559
G1 X44.870 Y66.018 E5.70892
G1 X45.759 Y66.018 E5.79015
G1 X47.795 Y63.982 E6.05348
G1 X48.684 Y63.982 E6.13471
G1 X46.647 Y66.018 E6.39804
G1 X47.536 Y66.018 E6.47927
G1 X49.572 Y63.982 E6.74260
G1 X50.461 Y63.982 E6.82383
G1 X48.424 Y66.018 E7.08716
G1 X49.313 Y66.018 E7.16838
G1 X51.349 Y63.982 E7.43171
G1 X52.238 Y63.982 E7.51294
G1 X50.201 Y66.018 E7.77627
G1 X51.090 Y66.018 E7.85750
G1 X53.126 Y63.982 E8.12083
G1 X54.015 Y63.982 E8.20206
G1 X51.978 Y66.018 E8.46539
G1 X52.867 Y66.018 E8.54662
G1 X56.018 Y62.867 E8.95410
G1 X56.018 Y63.755 E9.03533
G1 X53.755 Y66.018 E9.32794
G1 X54.644 Y66.018 E9.40917
G1 X56.018 Y64.644 E9.58690
G1 X56.018 Y65.532 E9.66813
G1 X55.532 Y66.018 E9.73099
G1 E7.73099 F2400.00000
G92 E0
G1 X46.400 Y43.600 F7800.000
G1 E2.00000 F2400.00000
G1 F1800
G1 X46.400 Y36.400 E2.65465
G1 X53.600 Y36.400 E3.30930
G1 X53.600 Y43.600 E3.96396
G1 X46.475 Y43.600 E4.61179
G1 X47.025 Y42.975 F7800.000
G1 F1800
G1 X47.025 Y37.025 E5.15280
G1 X52.975 Y37.025 E5.69381
G1 X52.975 Y42.975 E6.23482
G1 X47.100 Y42.975 E6.76901
G1 X47.650 Y42.350 F7800.000
G1 F1800
G1 X47.650 Y37.650 E7.19638
G1 X52.350 Y37.650 E7.62375
G1 X52.350 Y42.350 E8.05112
G1 X47.725 Y42.350 E8.47167
G1 X47.167 Y42.479 F7800.000
G1 E6.47167 F2400.00000
G92 E0
G1 X43.600 Y46.400 F7800.000
G1 E2.00000 F2400.00000
G1 F1800
G1 X43.600 Y33.600 E3.16394
G1 X56.400 Y33.600 E4.32788
G1 X56.400 Y46.400 E5.49182
G1 X43.675 Y46.400 E6.64894
G1 X42.975 Y47.025 F7800.000
G1 F1800
G1 X42.975 Y32.975 E7.92652
G1 X57.025 Y32.975 E9.20410
G1 X57.025 Y47.025 E10.48168
G1 X43.050 Y47.025 E11.75244
G1 X42.350 Y47.650 F7800.000
G1 F1800
G1 X42.350 Y32.350 E13.14366
G1 X57.650 Y32.350 E14.53489
G1 X57.650 Y47.650 E15.92611
G1 X42.425 Y47.650 E17.31051
G1 X42.479 Y47.167 F7800.000
G1 E15.31051 F2400.00000
G92 E0
G1 X53.982 Y44.015 F7800.000
G1 E2.00000 F2400.00000
G1 F1800
G1 X56.018 Y41.978 E2.26333
G1 X56.018 Y41.090 E2.34456
G1 X53.982 Y43.126 E2.60789
G1 X53.982 Y42.238 E2.68912
G1 X56.018 Y40.201 E2.95245
G1 X56.018 Y39.313 E3.03368
G1 X53.982 Y41.349 E3.29701
G1 X53.982 Y40.461 E3.37824
G1 X56.018 Y38.424 E3.64157
G1 X56.018 Y37.536 E3.72279
G1 X53.982 Y39.572 E3.98613
G1 X53.982 Y38.684 E4.06735
G1 X56.018 Y36.647 E4.33068
G1 X56.018 Y35.759 E4.41191
G1 X53.982 Y37.795 E4.67524
G1 X53.982 Y36.907 E4.75647
G1 X56.018 Y34.870 E5.01980
G1 X56.018 Y33.982 E5.10103
G1 X53.982 Y36.018 E5.36436
G1 X53.093 Y36.018 E5.44559
G1 X55.130 Y33.982 E5.70892
G1 X54.241 Y33.982 E5.79015
G1 X52.205 Y36.018 E6.05348
G1 X51.316 Y36.018 E6.13471
G1 X53.353 Y33.982 E6.39804
G1 X52.464 Y33.982 E6.47927
G1 X50.428 Y36.018 E6.74260
G1 X49.539 Y36.018 E6.82383
G1 X51.576 Y33.982 E7.08716
G1 X50.687 Y33.982 E7.16839
G1 X48.651 Y36.018 E7.43172
G1 X47.762 Y36.018 E7.51294
G1 X49.799 Y33.982 E7.77628
G1 X48.910 Y33.982 E7.85750
G1 X46.874 Y36.018 E8.12083
G1 X45.985 Y36.018 E8.20206
G1 X48.022 Y33.982 E8.46539
G1 X47.133 Y33.982 E8.54662
G1 X43.982 Y37.133 E8.95410
G1 X43.982 Y36.245 E9.03533
G1 X46.245 Y33.982 E9.32794
G1 X45.356 Y33.982 E9.40917
G1 X43.982 Y35.356 E9.58690
G1 X43.982 Y34.468 E9.66813
G1 X44.468 Y33.982 E9.73099
G1 E7.73099 F2400.00000
G92 E0
G1 X46.018 Y35.985 F7800.000
G1 E2.00000 F2400.00000
G1 F1800
G1 X43.982 Y38.022 E2.26333
G1 X43.982 Y38.910 E2.34456
G1 X46.018 Y36.874 E2.60789
G1 X46.018 Y37.762 E2.68912
G1 X43.982 Y39.799 E2.95245
G1 X43.982 Y40.687 E3.03368
G1 X46.018 Y38.651 E3.29701
G1 X46.018 Y39.539 E3.37824
G1 X43.982 Y41.576 E3.64157
G1 X43.982 Y42.464 E3.72280
G1 X46.018 Y40.428 E3.98613
G1 X46.018 Y41.316 E4.06735
G1 X43.982 Y43.353 E4.33069
G1 X43.982 Y44.241 E4.41191
G1 X46.018 Y42.205 E4.67524
G1 X46.018 Y43.093 E4.75647
G1 X43.982 Y45.130 E5.01980
G1 X43.982 Y46.018 E5.10103
G1 X46.018 Y43.982 E5.36436
G1 X46.907 Y43.982 E5.44559
G1 X44.870 Y46.018 E5.70892
G1 X45.759 Y46.018 E5.79015
G1 X47.795 Y43.982 E6.05348
G1 X48.684 Y43.982 E6.13471
G1 X46.647 Y46.018 E6.39804
G1 X47.536 Y46.018 E6.47927
G1 X49.572 Y43.982 E6.74260
G1 X50.461 Y43.982 E6.82383
G1 X48.424 Y46.018 E7.08716
G1 X49.313 Y46.018 E7.16839
G1 X51.349 Y43.982 E7.43172
G1 X52.238 Y43.982 E7.51295
G1 X50.201 Y46.018 E7.77628
G1 X51.090 Y46.018 E7.85750
G1 X53.126 Y43.982 E8.12084
G1 X54.015 Y43.982 E8.20206
G1 X51.978 Y46.018 E8.46539
G1 X52.867 Y46.018 E8.54662
G1 X56.018 Y42.867 E8.95410
G1 X56.018 Y43.755 E9.03533
G1 X53.755 Y46.018 E9.32794
G1 X54.644 Y46.018 E9.40917
G1 X56.018 Y44.644 E9.58690
G1 X56.018 Y45.532 E9.66813
G1 X55.532 Y46.018 E9.73099
G1 E7.73099 F2400.00000
G92 E0
G1 X46.400 Y23.600 F7800.000
G1 E2.00000 F2400.00000
G1 F1800
G1 X46.400 Y16.400 E2.65465
G1 X53.600 Y16.400 E3.30930
G1 X53.600 Y23.600 E3.96396
G1 X46.475 Y23.600 E4.61179
G1 X47.025 Y22.975 F7800.000
G1 F1800
G1 X47.025 Y17.025 E5.15280
G1 X52.975 Y17.025 E5.69381
G1 X52.975 Y22.975 E6.23482
G1 X47.100 Y22.975 E6.76901
G1 X47.650 Y22.350 F7800.000
G1 F1800
G1 X47.650 Y17.650 E7.19638
G1 X52.350 Y17.650 E7.62375
G1 X52.350 Y22.350 E8.05112
G1 X47.725 Y22.350 E8.47167
G1 X47.167 Y22.479 F7800.000
G1 E6.47167 F2400.00000
G92 E0
G1 X43.600 Y26.400 F7800.000
G1 E2.00000 F2400.00000
G1 F1800
G1 X43.600 Y13.600 E3.16394
G1 X56.400 Y13.600 E4.32788
G1 X56.400 Y26.400 E5.49182
G1 X43.675 Y26.400 E6.64894
G1 X42.975 Y27.025 F7800.000
G1 F1800
G1 X42.975 Y12.975 E7.92652
G1 X57.025 Y12.975 E9.20410
G1 X57.025 Y27.025 E10.48168
G1 X43.050 Y27.025 E11.75244
G1 X42.350 Y27.650 F7800.000
G1 F1800
G1 X42.350 Y12.350 E13.14366
G1 X57.650 Y12.350 E14.53489
G1 X57.650 Y27.650 E15.92611
G1 X42.425 Y27.650 E17.31051
G1 X42.479 Y27.167 F7800.000
G1 E15.31051 F2400.00000
G92 E0
G1 X53.982 Y24.015 F7800.000
G1 E2.00000 F2400.00000
G1 F1800
G1 X56.018 Y21.978 E2.26333
G1 X56.018 Y21.090 E2.34456
G1 X53.982 Y23.126 E2.60789
G1 X53.982 Y22.238 E2.68912
G1 X56.018 Y20.201 E2.95245
G1 X56.018 Y19.313 E3.03368
G1 X53.982 Y21.349 E3.29701
G1 X53.982 Y20.461 E3.37824
G1 X56.018 Y18.424 E3.64157
G1 X56.018 Y17.536 E3.72279
G1 X53.982 Y19.572 E3.98613
G1 X53.982 Y18.684 E4.06735
G1 X56.018 Y16.647 E4.33068
G1 X56.018 Y15.759 E4.41191
G1 X53.982 Y17.795 E4.67524
G1 X53.982 Y16.907 E4.75647
G1 X56.018 Y14.870 E5.01980
G1 X56.018 Y13.982 E5.10103
G1 X53.982 Y16.018 E5.36436
G1 X53.093 Y16.018 E5.44559
G1 X55.130 Y13.982 E5.70892
G1 X54.241 Y13.982 E5.79015
G1 X52.205 Y16.018 E6.05348
G1 X51.316 Y16.018 E6.13471
G1 X53.353 Y13.982 E6.39804
G1 X52.464 Y13.982 E6.47927
G1 X50.428 Y16.018 E6.74260
G1 X49.539 Y16.018 E6.82382
G1 X51.576 Y13.982 E7.08716
G1 X50.687 Y13.982 E7.16838
G1 X48.651 Y16.018 E7.43171
G1 X47.762 Y16.018 E7.51294
G1 X49.799 Y13.982 E7.77627
G1 X48.910 Y13.982 E7.85750
G1 X46.874 Y16.018 E8.12083
G1 X45.985 Y16.018 E8.20206
G1 X48.022 Y13.982 E8.46539
G1 X47.133 Y13.982 E8.54662
G1 X43.982 Y17.133 E8.95410
G1 X43.982 Y16.245 E9.03533
G1 X46.245 Y13.982 E9.32794
G1 X45.356 Y13.982 E9.40917
G1 X43.982 Y15.356 E9.58690
G1 X43.982 Y14.468 E9.66813
G1 X44.468 Y13.982 E9.73099
G1 E7.73099 F2400.00000
G92 E0
G1 X46.018 Y15.985 F7800.000
G1 E2.00000 F2400.00000
G1 F1800
G1 X43.982 Y18.022 E2.26333
G1 X43.982 Y18.910 E2.34456
G1 X46.018 Y16.874 E2.60789
G1 X46.018 Y17.762 E2.68912
G1 X43.982 Y19.799 E2.95245
G1 X43.982 Y20.687 E3.03368
G1 X46.018 Y18.651 E3.29701
G1 X46.018 Y19.539 E3.37824
G1 X43.982 Y21.576 E3.64157
G1 X43.982 Y22.464 E3.72280
G1 X46.018 Y20.428 E3.98613
G1 X46.018 Y21.316 E4.06735
G1 X43.982 Y23.353 E4.33068
G1 X43.982 Y24.241 E4.41191
G1 X46.018 Y22.205 E4.67524
G1 X46.018 Y23.093 E4.75647
G1 X43.982 Y25.130 E5.01980
G1 X43.982 Y26.018 E5.10103
G1 X46.018 Y23.982 E5.36436
G1 X46.907 Y23.982 E5.44559
G1 X44.870 Y26.018 E5.70892
G1 X45.759 Y26.018 E5.79015
G1 X47.795 Y23.982 E6.05348
G1 X48.684 Y23.982 E6.13471
G1 X46.647 Y26.018 E6.39804
G1 X47.536 Y26.018 E6.47927
G1 X49.572 Y23.982 E6.74260
