; generated by Slic3r 1.3.0 on 2020-02-22 at 23:43:19

; external perimeters extrusion width = 0.55mm (3.04mm^3/s)
; perimeters extrusion width = 0.70mm (7.88mm^3/s)
; infill extrusion width = 0.62mm (9.31mm^3/s)
; solid infill extrusion width = 0.70mm (2.63mm^3/s)
; top infill extrusion width = 0.70mm (1.97mm^3/s)

M107
M104 S200 ; set temperature
G28 ; home all axes
G1 Z5 F5000 ; lift nozzle

; Filament gcode

M109 S200 ; set temperature and wait for it to be reached
G21 ; set units to millimeters
G90 ; use absolute coordinates
M82 ; use absolute distances for extrusion
G92 E0
G1 Z0.350 F7800.000
G1 E-2.00000 F2400.00000
G92 E0
G1 X39.915 Y40.753 F7800.000
G1 E2.00000 F2400.00000
G1 F1800
G1 X41.668 Y39.274 E2.20854
G1 X43.820 Y38.481 E2.41708
G1 X45.000 Y38.375 E2.52479
G1 X55.000 Y38.375 E3.43409
G1 X57.259 Y38.772 E3.64263
G1 X59.247 Y39.915 E3.85117
G1 X60.726 Y41.668 E4.05972
G1 X61.519 Y43.820 E4.26826
G1 X61.625 Y45.000 E4.37597
G1 X61.625 Y55.000 E5.28526
G1 X61.228 Y57.259 E5.49381
G1 X60.085 Y59.247 E5.70235
G1 X58.332 Y60.726 E5.91089
G1 X56.180 Y61.519 E6.11943
G1 X55.000 Y61.625 E6.22714
G1 X45.000 Y61.625 E7.13644
G1 X42.741 Y61.228 E7.34498
G1 X40.753 Y60.085 E7.55352
G1 X39.274 Y58.332 E7.76207
G1 X38.481 Y56.180 E7.97061
G1 X38.375 Y55.000 E8.07832
G1 X38.375 Y45.000 E8.98761
G1 X38.772 Y42.741 E9.19615
G1 X39.878 Y40.818 E9.39788
G1 E7.39788 F2400.00000
G92 E0
G1 X53.400 Y53.400 F7800.000
G1 E2.00000 F2400.00000
G1 F1800
G1 X46.600 Y53.400 E2.61836
G1 X46.600 Y46.600 E3.23672
G1 X53.400 Y46.600 E3.85509
G1 X53.400 Y53.325 E4.46663
G1 X54.025 Y54.025 F7800.000
G1 F1800
G1 X45.975 Y54.025 E5.19863
G1 X45.975 Y45.975 E5.93063
G1 X54.025 Y45.975 E6.66264
G1 X54.025 Y53.950 E7.38782
G1 X54.650 Y54.650 F7800.000
G1 F1800
G1 X45.350 Y54.650 E8.23347
G1 X45.350 Y45.350 E9.07911
G1 X54.650 Y45.350 E9.92476
G1 X54.650 Y54.575 E10.76358
G1 X54.167 Y54.521 F7800.000
G1 E8.76358 F2400.00000
G92 E0
G1 X52.532 Y53.018 F7800.000
G1 E2.00000 F2400.00000
G1 F1800
G1 X53.018 Y52.532 E2.06545
G1 X53.018 Y51.607 E2.15350
G1 X51.607 Y53.018 E2.34348
G1 X50.682 Y53.018 E2.43154
G1 X53.018 Y50.682 E2.74604
G1 X53.018 Y49.757 E2.83410
G1 X49.757 Y53.018 E3.27314
G1 X48.832 Y53.018 E3.36119
G1 X53.018 Y48.832 E3.92476
G1 X53.018 Y47.907 E4.01282
G1 X47.907 Y53.018 E4.70091
G1 X46.982 Y53.018 E4.78897
G1 X53.018 Y46.982 E5.60160
G1 X52.093 Y46.982 E5.68965
G1 X46.982 Y52.093 E6.37775
G1 X46.982 Y51.168 E6.46580
G1 X51.168 Y46.982 E7.02937
G1 X50.243 Y46.982 E7.11743
G1 X46.982 Y50.243 E7.55647
G1 X46.982 Y49.318 E7.64452
G1 X49.318 Y46.982 E7.95903
G1 X48.393 Y46.982 E8.04709
G1 X46.982 Y48.393 E8.23707
G1 X46.982 Y47.468 E8.32512
G1 X47.468 Y46.982 E8.39057
M104 S220 ; set temperature
G1 Z0.550 F7800.000
G1 X53.486 Y53.486 F7800.000
G1 F900
G1 X46.514 Y53.486 E8.77148
G1 X46.514 Y46.514 E9.15239
G1 X53.486 Y46.514 E9.53330
G1 X53.486 Y53.411 E9.91011
G1 X54.143 Y54.143 F7800.000
G1 F900
G1 X45.857 Y54.143 E10.36281
G1 X45.857 Y45.857 E10.81552
G1 X54.143 Y45.857 E11.26823
G1 X54.143 Y54.068 E11.71684
G1 X54.725 Y54.725 F7800.000
G1 F900
G1 X45.275 Y54.725 E12.11529
G1 X45.275 Y45.275 E12.51374
G1 X54.725 Y45.275 E12.91219
G1 X54.725 Y54.650 E13.30747
G1 X54.242 Y54.596 F7800.000
G1 X53.084 Y47.427 F7800.000
G1 F1200
G1 X52.573 Y46.916 E13.34756
G1 X51.630 Y46.916 E13.39983
G1 X53.084 Y48.370 E13.51384
G1 X53.084 Y49.313 E13.56611
G1 X50.687 Y46.916 E13.75405
G1 X49.744 Y46.916 E13.80632
G1 X53.084 Y50.256 E14.06818
G1 X53.084 Y51.199 E14.12045
G1 X48.801 Y46.916 E14.45624
G1 X47.859 Y46.916 E14.50852
G1 X53.084 Y52.141 E14.91823
G1 X53.084 Y53.084 E14.97050
G1 X46.916 Y46.916 E15.45414
G1 X46.916 Y47.859 E15.50642
G1 X52.141 Y53.084 E15.91613
G1 X51.199 Y53.084 E15.96840
G1 X46.916 Y48.801 E16.30419
G1 X46.916 Y49.744 E16.35646
G1 X50.256 Y53.084 E16.61833
G1 X49.313 Y53.084 E16.67060
G1 X46.916 Y50.687 E16.85853
G1 X46.916 Y51.630 E16.91081
G1 X48.370 Y53.084 E17.02482
G1 X47.427 Y53.084 E17.07709
G1 X46.916 Y52.573 E17.11717
G1 Z0.750 F7800.000
G1 X53.486 Y53.486 F7800.000
G1 F900
G1 X46.514 Y53.486 E17.49808
G1 X46.514 Y46.514 E17.87899
G1 X53.486 Y46.514 E18.25990
G1 X53.486 Y53.411 E18.63671
G1 X54.143 Y54.143 F7800.000
G1 F900
G1 X45.857 Y54.143 E19.08941
G1 X45.857 Y45.857 E19.54212
G1 X54.143 Y45.857 E19.99483
G1 X54.143 Y54.068 E20.44344
G1 X54.725 Y54.725 F7800.000
G1 F900
G1 X45.275 Y54.725 E20.84189
G1 X45.275 Y45.275 E21.24034
G1 X54.725 Y45.275 E21.63879
G1 X54.725 Y54.650 E22.03407
G1 X54.242 Y54.596 F7800.000
G1 X52.573 Y53.084 F7800.000
G1 F1200
G1 X53.084 Y52.573 E22.07415
G1 X53.084 Y51.630 E22.12643
G1 X51.630 Y53.084 E22.24044
G1 X50.687 Y53.084 E22.29271
G1 X53.084 Y50.687 E22.48064
G1 X53.084 Y49.744 E22.53292
G1 X49.744 Y53.084 E22.79478
G1 X48.801 Y53.084 E22.84705
G1 X53.084 Y48.801 E23.18284
G1 X53.084 Y47.859 E23.23511
G1 X47.859 Y53.084 E23.64483
G1 X46.916 Y53.084 E23.69710
G1 X53.084 Y46.916 E24.18074
G1 X52.141 Y46.916 E24.23301
G1 X46.916 Y52.141 E24.64273
G1 X46.916 Y51.199 E24.69500
G1 X51.199 Y46.916 E25.03079
G1 X50.256 Y46.916 E25.08306
G1 X46.916 Y50.256 E25.34492
G1 X46.916 Y49.313 E25.39720
G1 X49.313 Y46.916 E25.58513
G1 X48.370 Y46.916 E25.63741
G1 X46.916 Y48.370 E25.75141
G1 X46.916 Y47.427 E25.80369
G1 X47.427 Y46.916 E25.84377
M106 S239.7
G1 Z0.950 F7800.000
G1 X53.486 Y53.486 F7800.000
G1 F900
G1 X46.514 Y53.486 E26.22468
G1 X46.514 Y46.514 E26.60558
G1 X53.486 Y46.514 E26.98649
G1 X53.486 Y53.411 E27.36330
G1 X54.143 Y54.143 F7800.000
G1 F900
G1 X45.857 Y54.143 E27.81601
G1 X45.857 Y45.857 E28.26872
G1 X54.143 Y45.857 E28.72143
G1 X54.143 Y54.068 E29.17004
G1 X54.725 Y54.725 F7800.000
G1 F900
G1 X45.275 Y54.725 E29.56849
G1 X45.275 Y45.275 E29.96694
G1 X54.725 Y45.275 E30.36538
G1 X54.725 Y54.650 E30.76067
G1 X54.242 Y54.596 F7800.000
G1 X53.084 Y47.427 F7800.000
G1 F1200
G1 X52.573 Y46.916 E30.80075
G1 X51.630 Y46.916 E30.85302
G1 X53.084 Y48.370 E30.96703
G1 X53.084 Y49.313 E31.01931
G1 X50.687 Y46.916 E31.20724
G1 X49.744 Y46.916 E31.25951
G1 X53.084 Y50.256 E31.52137
G1 X53.084 Y51.199 E31.57364
G1 X48.801 Y46.916 E31.90943
G1 X47.859 Y46.916 E31.96170
G1 X53.084 Y52.141 E32.37141
G1 X53.084 Y53.084 E32.42368
G1 X46.916 Y46.916 E32.90732
G1 X46.916 Y47.859 E32.95959
G1 X52.141 Y53.084 E33.36930
G1 X51.199 Y53.084 E33.42158
G1 X46.916 Y48.801 E33.75736
G1 X46.916 Y49.744 E33.80964
G1 X50.256 Y53.084 E34.07150
G1 X49.313 Y53.084 E34.12377
G1 X46.916 Y50.687 E34.31170
G1 X46.916 Y51.630 E34.36398
G1 X48.370 Y53.084 E34.47798
G1 X47.427 Y53.084 E34.53026
G1 X46.916 Y52.573 E34.57034
G1 Z1.150 F7800.000
G1 X53.486 Y53.486 F7800.000
G1 F900
G1 X46.514 Y53.486 E34.95125
G1 X46.514 Y46.514 E35.33216
G1 X53.486 Y46.514 E35.71306
G1 X53.486 Y53.411 E36.08987
G1 X54.143 Y54.143 F7800.000
G1 F900
G1 X45.857 Y54.143 E36.54258
G1 X45.857 Y45.857 E36.99529
G1 X54.143 Y45.857 E37.44800
G1 X54.143 Y54.068 E37.89661
G1 X54.725 Y54.725 F7800.000
G1 F900
G1 X45.275 Y54.725 E38.29506
G1 X45.275 Y45.275 E38.69351
G1 X54.725 Y45.275 E39.09195
G1 X54.725 Y54.650 E39.48724
G1 X54.242 Y54.596 F7800.000
G1 X52.573 Y53.084 F7800.000
G1 F1200
G1 X53.084 Y52.573 E39.52732
G1 X53.084 Y51.630 E39.57960
G1 X51.630 Y53.084 E39.69360
G1 X50.687 Y53.084 E39.74588
G1 X53.084 Y50.687 E39.93381
G1 X53.084 Y49.744 E39.98608
G1 X49.744 Y53.084 E40.24794
G1 X48.801 Y53.084 E40.30021
G1 X53.084 Y48.801 E40.63600
G1 X53.084 Y47.859 E40.68827
G1 X47.859 Y53.084 E41.09798
G1 X46.916 Y53.084 E41.15025
G1 X53.084 Y46.916 E41.63389
G1 X52.141 Y46.916 E41.68616
G1 X46.916 Y52.141 E42.09587
G1 X46.916 Y51.199 E42.14815
G1 X51.199 Y46.916 E42.48393
G1 X50.256 Y46.916 E42.53621
G1 X46.916 Y50.256 E42.79807
G1 X46.916 Y49.313 E42.85034
G1 X49.313 Y46.916 E43.03827
G1 X48.370 Y46.916 E43.09055
G1 X46.916 Y48.370 E43.20455
G1 X46.916 Y47.427 E43.25683
G1 X47.427 Y46.916 E43.29691
G1 Z1.350 F7800.000
G1 X53.486 Y53.486 F7800.000
G1 F900
G1 X46.514 Y53.486 E43.67782
G1 X46.514 Y46.514 E44.05873
G1 X53.486 Y46.514 E44.43963
G1 X53.486 Y53.411 E44.81644
G1 X54.143 Y54.143 F7800.000
G1 F900
G1 X45.857 Y54.143 E45.26915
G1 X45.857 Y45.857 E45.72186
G1 X54.143 Y45.857 E46.17457
G1 X54.143 Y54.068 E46.62318
G1 X54.725 Y54.725 F7800.000
G1 F900
G1 X45.275 Y54.725 E47.02163
G1 X45.275 Y45.275 E47.42008
G1 X54.725 Y45.275 E47.81852
G1 X54.725 Y54.650 E48.21381
G1 X54.242 Y54.596 F7800.000
G1 X53.084 Y47.427 F7800.000
G1 F1200
G1 X52.573 Y46.916 E48.25389
G1 X51.630 Y46.916 E48.30617
G1 X53.084 Y48.370 E48.42017
G1 X53.084 Y49.313 E48.47245
G1 X50.687 Y46.916 E48.66038
G1 X49.744 Y46.916 E48.71265
G1 X53.084 Y50.256 E48.97451
G1 X53.084 Y51.199 E49.02678
G1 X48.801 Y46.916 E49.36257
G1 X47.859 Y46.916 E49.41484
G1 X53.084 Y52.141 E49.82455
G1 X53.084 Y53.084 E49.87682
G1 X46.916 Y46.916 E50.36046
G1 X46.916 Y47.859 E50.41273
G1 X52.141 Y53.084 E50.82244
G1 X51.199 Y53.084 E50.87472
G1 X46.916 Y48.801 E51.21050
G1 X46.916 Y49.744 E51.26278
G1 X50.256 Y53.084 E51.52464
G1 X49.313 Y53.084 E51.57691
G1 X46.916 Y50.687 E51.76484
G1 X46.916 Y51.630 E51.81712
G1 X48.370 Y53.084 E51.93112
G1 X47.427 Y53.084 E51.98340
G1 X46.916 Y52.573 E52.02348
G1 Z1.550 F7800.000
G1 X53.486 Y53.486 F7800.000
G1 F900
G1 X46.514 Y53.486 E52.40439
G1 X46.514 Y46.514 E52.78530
G1 X53.486 Y46.514 E53.16620
G1 X53.486 Y53.411 E53.54301
G1 X54.143 Y54.143 F7800.000
G1 F900
G1 X45.857 Y54.143 E53.99572
G1 X45.857 Y45.857 E54.44843
G1 X54.143 Y45.857 E54.90114
G1 X54.143 Y54.068 E55.34975
G1 X54.725 Y54.725 F7800.000
G1 F900
G1 X45.275 Y54.725 E55.74820
G1 X45.275 Y45.275 E56.14665
G1 X54.725 Y45.275 E56.54510
G1 X54.725 Y54.650 E56.94038
G1 X54.242 Y54.596 F7800.000
G1 X52.573 Y53.084 F7800.000
G1 F1200
G1 X53.084 Y52.573 E56.98046
G1 X53.084 Y51.630 E57.03274
G1 X51.630 Y53.084 E57.14674
G1 X50.687 Y53.084 E57.19902
G1 X53.084 Y50.687 E57.38695
G1 X53.084 Y49.744 E57.43922
G1 X49.744 Y53.084 E57.70108
G1 X48.801 Y53.084 E57.75335
G1 X53.084 Y48.801 E58.08914
G1 X53.084 Y47.859 E58.14141
G1 X47.859 Y53.084 E58.55112
G1 X46.916 Y53.084 E58.60340
G1 X53.084 Y46.916 E59.08703
G1 X52.141 Y46.916 E59.13930
G1 X46.916 Y52.141 E59.54901
G1 X46.916 Y51.199 E59.60129
G1 X51.199 Y46.916 E59.93707
G1 X50.256 Y46.916 E59.98935
G1 X46.916 Y50.256 E60.25121
G1 X46.916 Y49.313 E60.30348
G1 X49.313 Y46.916 E60.49141
G1 X48.370 Y46.916 E60.54369
G1 X46.916 Y48.370 E60.65769
G1 X46.916 Y47.427 E60.70997
G1 X47.427 Y46.916 E60.75005
G1 Z1.750 F7800.000
G1 X53.486 Y53.486 F7800.000
G1 F900
G1 X46.514 Y53.486 E61.13096
G1 X46.514 Y46.514 E61.51187
G1 X53.486 Y46.514 E61.89277
G1 X53.486 Y53.411 E62.26958
G1 X54.143 Y54.143 F7800.000
G1 F900
G1 X45.857 Y54.143 E62.72229
G1 X45.857 Y45.857 E63.17500
G1 X54.143 Y45.857 E63.62771
G1 X54.143 Y54.068 E64.07632
G1 X54.725 Y54.725 F7800.000
G1 F900
G1 X45.275 Y54.725 E64.47477
G1 X45.275 Y45.275 E64.87322
G1 X54.725 Y45.275 E65.27166
G1 X54.725 Y54.650 E65.66695
G1 X54.242 Y54.596 F7800.000
G1 X53.084 Y47.427 F7800.000
G1 F1200
G1 X52.573 Y46.916 E65.70703
G1 X51.630 Y46.916 E65.75931
G1 X53.084 Y48.370 E65.87331
G1 X53.084 Y49.313 E65.92559
G1 X50.687 Y46.916 E66.11352
G1 X49.744 Y46.916 E66.16579
G1 X53.084 Y50.256 E66.42765
G1 X53.084 Y51.199 E66.47992
G1 X48.801 Y46.916 E66.81571
G1 X47.859 Y46.916 E66.86798
G1 X53.084 Y52.141 E67.27769
G1 X53.084 Y53.084 E67.32997
G1 X46.916 Y46.916 E67.81360
G1 X46.916 Y47.859 E67.86587
G1 X52.141 Y53.084 E68.27558
G1 X51.199 Y53.084 E68.32786
G1 X46.916 Y48.801 E68.66364
G1 X46.916 Y49.744 E68.71592
G1 X50.256 Y53.084 E68.97778
G1 X49.313 Y53.084 E69.03005
G1 X46.916 Y50.687 E69.21798
G1 X46.916 Y51.630 E69.27026
G1 X48.370 Y53.084 E69.38427
G1 X47.427 Y53.084 E69.43654
G1 X46.916 Y52.573 E69.47662
G1 Z1.950 F7800.000
G1 X53.486 Y53.486 F7800.000
G1 F900
G1 X46.514 Y53.486 E69.85753
G1 X46.514 Y46.514 E70.23844
G1 X53.486 Y46.514 E70.61934
G1 X53.486 Y53.411 E70.99615
G1 X54.143 Y54.143 F7800.000
G1 F900
G1 X45.857 Y54.143 E71.44886
G1 X45.857 Y45.857 E71.90157
G1 X54.143 Y45.857 E72.35428
G1 X54.143 Y54.068 E72.80289
G1 X54.725 Y54.725 F7800.000
G1 F900
G1 X45.275 Y54.725 E73.20134
G1 X45.275 Y45.275 E73.59979
G1 X54.725 Y45.275 E73.99824
G1 X54.725 Y54.650 E74.39352
G1 X54.242 Y54.596 F7800.000
G1 X52.573 Y53.084 F7800.000
G1 F1200
G1 X53.084 Y52.573 E74.43360
G1 X53.084 Y51.630 E74.48588
G1 X51.630 Y53.084 E74.59988
G1 X50.687 Y53.084 E74.65216
G1 X53.084 Y50.687 E74.84009
G1 X53.084 Y49.744 E74.89236
G1 X49.744 Y53.084 E75.15422
G1 X48.801 Y53.084 E75.20650
G1 X53.084 Y48.801 E75.54228
G1 X53.084 Y47.859 E75.59455
G1 X47.859 Y53.084 E76.00426
G1 X46.916 Y53.084 E76.05654
G1 X53.084 Y46.916 E76.54017
G1 X52.141 Y46.916 E76.59244
G1 X46.916 Y52.141 E77.00216
G1 X46.916 Y51.199 E77.05443
G1 X51.199 Y46.916 E77.39021
G1 X50.256 Y46.916 E77.44249
G1 X46.916 Y50.256 E77.70435
G1 X46.916 Y49.313 E77.75662
G1 X49.313 Y46.916 E77.94455
G1 X48.370 Y46.916 E77.99683
G1 X46.916 Y48.370 E78.11084
G1 X46.916 Y47.427 E78.16311
G1 X47.427 Y46.916 E78.20319
G1 Z2.150 F7800.000
G1 X53.486 Y53.486 F7800.000
G1 F900
G1 X46.514 Y53.486 E78.58410
G1 X46.514 Y46.514 E78.96501
G1 X53.486 Y46.514 E79.34591
G1 X53.486 Y53.411 E79.72272
G1 X54.143 Y54.143 F7800.000
G1 F900
G1 X45.857 Y54.143 E80.17543
G1 X45.857 Y45.857 E80.62814
G1 X54.143 Y45.857 E81.08085
G1 X54.143 Y54.068 E81.52946
G1 X54.725 Y54.725 F7800.000
G1 F900
G1 X45.275 Y54.725 E81.92791
G1 X45.275 Y45.275 E82.32636
G1 X54.725 Y45.275 E82.72481
G1 X54.725 Y54.650 E83.12009
G1 X54.242 Y54.596 F7800.000
G1 X53.084 Y47.427 F7800.000
G1 F1200
G1 X52.573 Y46.916 E83.16017
G1 X51.630 Y46.916 E83.21245
G1 X53.084 Y48.370 E83.32645
G1 X53.084 Y49.313 E83.37873
G1 X50.687 Y46.916 E83.56666
G1 X49.744 Y46.916 E83.61893
G1 X53.084 Y50.256 E83.88079
G1 X53.084 Y51.199 E83.93306
G1 X48.801 Y46.916 E84.26885
G1 X47.859 Y46.916 E84.32112
G1 X53.084 Y52.141 E84.73083
G1 X53.084 Y53.084 E84.78311
G1 X46.916 Y46.916 E85.26674
G1 X46.916 Y47.859 E85.31901
G1 X52.141 Y53.084 E85.72873
G1 X51.199 Y53.084 E85.78100
G1 X46.916 Y48.801 E86.11678
G1 X46.916 Y49.744 E86.16906
G1 X50.256 Y53.084 E86.43092
G1 X49.313 Y53.084 E86.48319
G1 X46.916 Y50.687 E86.67112
G1 X46.916 Y51.630 E86.72340
G1 X48.370 Y53.084 E86.83741
G1 X47.427 Y53.084 E86.88968
G1 X46.916 Y52.573 E86.92976
G1 Z2.350 F7800.000
G1 X53.486 Y53.486 F7800.000
G1 F900
G1 X46.514 Y53.486 E87.31067
G1 X46.514 Y46.514 E87.69158
G1 X53.486 Y46.514 E88.07248
G1 X53.486 Y53.411 E88.44929
G1 X54.143 Y54.143 F7800.000
G1 F900
G1 X45.857 Y54.143 E88.90200
G1 X45.857 Y45.857 E89.35471
G1 X54.143 Y45.857 E89.80742
G1 X54.143 Y54.068 E90.25603
G1 X54.725 Y54.725 F7800.000
G1 F900
G1 X45.275 Y54.725 E90.65448
G1 X45.275 Y45.275 E91.05293
G1 X54.725 Y45.275 E91.45138
G1 X54.725 Y54.650 E91.84666
G1 X54.242 Y54.596 F7800.000
G1 X52.573 Y53.084 F7800.000
G1 F1200
G1 X53.084 Y52.573 E91.88674
G1 X53.084 Y51.630 E91.93902
G1 X51.630 Y53.084 E92.05302
G1 X50.687 Y53.084 E92.10530
G1 X53.084 Y50.687 E92.29323
G1 X53.084 Y49.744 E92.34550
G1 X49.744 Y53.084 E92.60736
G1 X48.801 Y53.084 E92.65964
G1 X53.084 Y48.801 E92.99542
G1 X53.084 Y47.859 E93.04769
G1 X47.859 Y53.084 E93.45740
G1 X46.916 Y53.084 E93.50968
G1 X53.084 Y46.916 E93.99331
G1 X52.141 Y46.916 E94.04558
G1 X46.916 Y52.141 E94.45530
G1 X46.916 Y51.199 E94.50757
G1 X51.199 Y46.916 E94.84335
G1 X50.256 Y46.916 E94.89563
G1 X46.916 Y50.256 E95.15749
G1 X46.916 Y49.313 E95.20976
G1 X49.313 Y46.916 E95.39769
G1 X48.370 Y46.916 E95.44997
G1 X46.916 Y48.370 E95.56398
G1 X46.916 Y47.427 E95.61625
G1 X47.427 Y46.916 E95.65633
G1 Z2.550 F7800.000
G1 X53.486 Y53.486 F7800.000
G1 F900
G1 X46.514 Y53.486 E96.03724
G1 X46.514 Y46.514 E96.41815
G1 X53.486 Y46.514 E96.79905
G1 X53.486 Y53.411 E97.17586
G1 X54.143 Y54.143 F7800.000
G1 F900
G1 X45.857 Y54.143 E97.62857
G1 X45.857 Y45.857 E98.08128
G1 X54.143 Y45.857 E98.53399
G1 X54.143 Y54.068 E98.98260
G1 X54.725 Y54.725 F7800.000
G1 F900
G1 X45.275 Y54.725 E99.38105
G1 X45.275 Y45.275 E99.77950
G1 X54.725 Y45.275 E100.17795
G1 X54.725 Y54.650 E100.57323
G1 X54.242 Y54.596 F7800.000
G1 X53.084 Y47.427 F7800.000
G1 F1200
