; generated by Slic3r 1.3.0 on 2020-02-22 at 23:45:48

; external perimeters extrusion width = 0.55mm (3.04mm^3/s)
; perimeters extrusion width = 0.70mm (7.88mm^3/s)
; infill extrusion width = 0.62mm (9.31mm^3/s)
; solid infill extrusion width = 0.70mm (2.63mm^3/s)
; top infill extrusion width = 0.70mm (1.97mm^3/s)

M107
M104 S200 ; set temperature
G28 ; home all axes
G1 Z5 F5000 ; lift nozzle

; Filament gcode

M109 S200 ; set temperature and wait for it to be reached
G21 ; set units to millimeters
G90 ; use absolute coordinates
M82 ; use absolute distances for extrusion
G92 E0
G1 Z0.350 F7800.000
G1 E-2.00000 F2400.00000
G92 E0
G1 X39.915 Y40.753 F7800.000
G1 E2.00000 F2400.00000
G1 F1800
G1 X41.668 Y39.274 E2.25025
G1 X43.820 Y38.481 E2.50050
G1 X45.000 Y38.375 E2.62975
G1 X55.000 Y38.375 E3.72091
G1 X57.259 Y38.772 E3.97116
G1 X59.247 Y39.915 E4.22141
G1 X60.726 Y41.668 E4.47166
G1 X61.519 Y43.820 E4.72191
G1 X61.625 Y45.000 E4.85116
G1 X61.625 Y55.000 E5.94232
G1 X61.228 Y57.259 E6.19257
G1 X60.085 Y59.247 E6.44282
G1 X58.332 Y60.726 E6.69307
G1 X56.180 Y61.519 E6.94332
G1 X55.000 Y61.625 E7.07257
G1 X45.000 Y61.625 E8.16373
G1 X42.741 Y61.228 E8.41398
G1 X40.753 Y60.085 E8.66423
G1 X39.274 Y58.332 E8.91448
G1 X38.481 Y56.180 E9.16473
G1 X38.375 Y55.000 E9.29398
G1 X38.375 Y45.000 E10.38514
G1 X38.772 Y42.741 E10.63539
G1 X39.878 Y40.818 E10.87745
G1 E8.87745 F2400.00000
G92 E0
G1 X53.400 Y53.400 F7800.000
G1 E2.00000 F2400.00000
G1 F1800
G1 X46.600 Y53.400 E2.74203
G1 X46.600 Y46.600 E3.48407
G1 X53.400 Y46.600 E4.22610
G1 X53.400 Y53.325 E4.95995
G1 X54.025 Y54.025 F7800.000
G1 F1800
G1 X45.975 Y54.025 E5.83836
G1 X45.975 Y45.975 E6.71676
G1 X54.025 Y45.975 E7.59516
G1 X54.025 Y53.950 E8.46539
G1 X54.650 Y54.650 F7800.000
G1 F1800
G1 X45.350 Y54.650 E9.48016
G1 X45.350 Y45.350 E10.49493
G1 X54.650 Y45.350 E11.50971
G1 X54.650 Y54.575 E12.51630
G1 X54.167 Y54.521 F7800.000
G1 E10.51630 F2400.00000
G92 E0
G1 X52.532 Y53.018 F7800.000
G1 E2.00000 F2400.00000
G1 F1800
G1 X53.018 Y52.532 E2.07854
G1 X53.018 Y51.607 E2.18420
G1 X51.607 Y53.018 E2.41218
G1 X50.682 Y53.018 E2.51784
G1 X53.018 Y50.682 E2.89525
G1 X53.018 Y49.757 E3.00092
G1 X49.757 Y53.018 E3.52776
G1 X48.832 Y53.018 E3.63343
G1 X53.018 Y48.832 E4.30971
G1 X53.018 Y47.907 E4.41538
G1 X47.907 Y53.018 E5.24110
G1 X46.982 Y53.018 E5.34676
G1 X53.018 Y46.982 E6.32191
G1 X52.093 Y46.982 E6.42758
G1 X46.982 Y52.093 E7.25330
G1 X46.982 Y51.168 E7.35897
G1 X51.168 Y46.982 E8.03525
G1 X50.243 Y46.982 E8.14092
G1 X46.982 Y50.243 E8.66776
G1 X46.982 Y49.318 E8.77343
G1 X49.318 Y46.982 E9.15084
G1 X48.393 Y46.982 E9.25651
G1 X46.982 Y48.393 E9.48448
G1 X46.982 Y47.468 E9.59015
G1 X47.468 Y46.982 E9.66869
M104 S220 ; set temperature
G1 Z0.550 F7800.000
G1 X53.486 Y53.486 F7800.000
G1 F900
G1 X46.514 Y53.486 E10.12578
G1 X46.514 Y46.514 E10.58287
G1 X53.486 Y46.514 E11.03996
G1 X53.486 Y53.411 E11.49213
G1 X54.143 Y54.143 F7800.000
G1 F900
G1 X45.857 Y54.143 E12.03538
G1 X45.857 Y45.857 E12.57863
G1 X54.143 Y45.857 E13.12188
G1 X54.143 Y54.068 E13.66021
G1 X54.725 Y54.725 F7800.000
G1 F900
G1 X45.275 Y54.725 E14.13835
G1 X45.275 Y45.275 E14.61649
G1 X54.725 Y45.275 E15.09463
G1 X54.725 Y54.650 E15.56897
G1 X54.242 Y54.596 F7800.000
G1 X53.084 Y47.427 F7800.000
G1 F1200
G1 X52.573 Y46.916 E15.61707
G1 X51.630 Y46.916 E15.67980
G1 X53.084 Y48.370 E15.81661
G1 X53.084 Y49.313 E15.87933
G1 X50.687 Y46.916 E16.10485
G1 X49.744 Y46.916 E16.16758
G1 X53.084 Y50.256 E16.48182
G1 X53.084 Y51.199 E16.54455
G1 X48.801 Y46.916 E16.94749
G1 X47.859 Y46.916 E17.01022
G1 X53.084 Y52.141 E17.50187
G1 X53.084 Y53.084 E17.56460
G1 X46.916 Y46.916 E18.14497
G1 X46.916 Y47.859 E18.20770
G1 X52.141 Y53.084 E18.69936
G1 X51.199 Y53.084 E18.76208
G1 X46.916 Y48.801 E19.16503
G1 X46.916 Y49.744 E19.22776
G1 X50.256 Y53.084 E19.54199
G1 X49.313 Y53.084 E19.60472
G1 X46.916 Y50.687 E19.83024
G1 X46.916 Y51.630 E19.89297
G1 X48.370 Y53.084 E20.02978
G1 X47.427 Y53.084 E20.09251
G1 X46.916 Y52.573 E20.14061
G1 Z0.750 F7800.000
G1 X53.486 Y53.486 F7800.000
G1 F900
G1 X46.514 Y53.486 E20.59770
G1 X46.514 Y46.514 E21.05479
G1 X53.486 Y46.514 E21.51187
G1 X53.486 Y53.411 E21.96405
G1 X54.143 Y54.143 F7800.000
G1 F900
G1 X45.857 Y54.143 E22.50730
G1 X45.857 Y45.857 E23.05055
G1 X54.143 Y45.857 E23.59380
G1 X54.143 Y54.068 E24.13213
G1 X54.725 Y54.725 F7800.000
G1 F900
G1 X45.275 Y54.725 E24.61027
G1 X45.275 Y45.275 E25.08841
G1 X54.725 Y45.275 E25.56654
G1 X54.725 Y54.650 E26.04089
G1 X54.242 Y54.596 F7800.000
G1 X52.573 Y53.084 F7800.000
G1 F1200
G1 X53.084 Y52.573 E26.08899
G1 X53.084 Y51.630 E26.15171
G1 X51.630 Y53.084 E26.28852
G1 X50.687 Y53.084 E26.35125
G1 X53.084 Y50.687 E26.57677
G1 X53.084 Y49.744 E26.63950
G1 X49.744 Y53.084 E26.95373
G1 X48.801 Y53.084 E27.01646
G1 X53.084 Y48.801 E27.41941
G1 X53.084 Y47.859 E27.48214
G1 X47.859 Y53.084 E27.97379
G1 X46.916 Y53.084 E28.03652
G1 X53.084 Y46.916 E28.61689
G1 X52.141 Y46.916 E28.67962
G1 X46.916 Y52.141 E29.17127
G1 X46.916 Y51.199 E29.23400
G1 X51.199 Y46.916 E29.63695
G1 X50.256 Y46.916 E29.69967
G1 X46.916 Y50.256 E30.01391
G1 X46.916 Y49.313 E30.07664
G1 X49.313 Y46.916 E30.30216
G1 X48.370 Y46.916 E30.36489
G1 X46.916 Y48.370 E30.50170
G1 X46.916 Y47.427 E30.56443
G1 X47.427 Y46.916 E30.61252
M106 S239.7
G1 Z0.950 F7800.000
G1 X53.486 Y53.486 F7800.000
G1 F900
G1 X46.514 Y53.486 E31.06961
G1 X46.514 Y46.514 E31.52670
G1 X53.486 Y46.514 E31.98379
G1 X53.486 Y53.411 E32.43596
G1 X54.143 Y54.143 F7800.000
G1 F900
G1 X45.857 Y54.143 E32.97921
G1 X45.857 Y45.857 E33.52246
G1 X54.143 Y45.857 E34.06571
G1 X54.143 Y54.068 E34.60405
G1 X54.725 Y54.725 F7800.000
G1 F900
G1 X45.275 Y54.725 E35.08218
G1 X45.275 Y45.275 E35.56032
G1 X54.725 Y45.275 E36.03846
G1 X54.725 Y54.650 E36.51280
G1 X54.242 Y54.596 F7800.000
G1 X53.084 Y47.427 F7800.000
G1 F1200
G1 X52.573 Y46.916 E36.56090
G1 X51.630 Y46.916 E36.62363
G1 X53.084 Y48.370 E36.76044
G1 X53.084 Y49.313 E36.82317
G1 X50.687 Y46.916 E37.04869
G1 X49.744 Y46.916 E37.11141
G1 X53.084 Y50.256 E37.42564
G1 X53.084 Y51.199 E37.48837
G1 X48.801 Y46.916 E37.89131
G1 X47.859 Y46.916 E37.95404
G1 X53.084 Y52.141 E38.44569
G1 X53.084 Y53.084 E38.50842
G1 X46.916 Y46.916 E39.08878
G1 X46.916 Y47.859 E39.15151
G1 X52.141 Y53.084 E39.64316
G1 X51.199 Y53.084 E39.70589
G1 X46.916 Y48.801 E40.10883
G1 X46.916 Y49.744 E40.17156
G1 X50.256 Y53.084 E40.48579
G1 X49.313 Y53.084 E40.54852
G1 X46.916 Y50.687 E40.77404
G1 X46.916 Y51.630 E40.83677
G1 X48.370 Y53.084 E40.97358
G1 X47.427 Y53.084 E41.03631
G1 X46.916 Y52.573 E41.08441
G1 Z1.150 F7800.000
G1 X53.486 Y53.486 F7800.000
G1 F900
G1 X46.514 Y53.486 E41.54150
G1 X46.514 Y46.514 E41.99859
G1 X53.486 Y46.514 E42.45568
G1 X53.486 Y53.411 E42.90785
G1 X54.143 Y54.143 F7800.000
G1 F900
G1 X45.857 Y54.143 E43.45110
G1 X45.857 Y45.857 E43.99435
G1 X54.143 Y45.857 E44.53760
G1 X54.143 Y54.068 E45.07593
G1 X54.725 Y54.725 F7800.000
G1 F900
G1 X45.275 Y54.725 E45.55407
G1 X45.275 Y45.275 E46.03221
G1 X54.725 Y45.275 E46.51035
G1 X54.725 Y54.650 E46.98469
G1 X54.242 Y54.596 F7800.000
G1 X52.573 Y53.084 F7800.000
G1 F1200
G1 X53.084 Y52.573 E47.03279
G1 X53.084 Y51.630 E47.09551
G1 X51.630 Y53.084 E47.23232
G1 X50.687 Y53.084 E47.29505
G1 X53.084 Y50.687 E47.52057
G1 X53.084 Y49.744 E47.58330
G1 X49.744 Y53.084 E47.89753
G1 X48.801 Y53.084 E47.96026
G1 X53.084 Y48.801 E48.36320
G1 X53.084 Y47.859 E48.42593
G1 X47.859 Y53.084 E48.91758
G1 X46.916 Y53.084 E48.98031
G1 X53.084 Y46.916 E49.56067
G1 X52.141 Y46.916 E49.62340
G1 X46.916 Y52.141 E50.11505
G1 X46.916 Y51.199 E50.17778
G1 X51.199 Y46.916 E50.58072
G1 X50.256 Y46.916 E50.64345
G1 X46.916 Y50.256 E50.95768
G1 X46.916 Y49.313 E51.02041
G1 X49.313 Y46.916 E51.24593
G1 X48.370 Y46.916 E51.30866
G1 X46.916 Y48.370 E51.44546
G1 X46.916 Y47.427 E51.50819
G1 X47.427 Y46.916 E51.55629
G1 Z1.350 F7800.000
G1 X53.486 Y53.486 F7800.000
G1 F900
G1 X46.514 Y53.486 E52.01338
G1 X46.514 Y46.514 E52.47047
G1 X53.486 Y46.514 E52.92756
G1 X53.486 Y53.411 E53.37973
G1 X54.143 Y54.143 F7800.000
G1 F900
G1 X45.857 Y54.143 E53.92298
G1 X45.857 Y45.857 E54.46623
G1 X54.143 Y45.857 E55.00948
G1 X54.143 Y54.068 E55.54782
G1 X54.725 Y54.725 F7800.000
G1 F900
G1 X45.275 Y54.725 E56.02595
G1 X45.275 Y45.275 E56.50409
G1 X54.725 Y45.275 E56.98223
G1 X54.725 Y54.650 E57.45657
G1 X54.242 Y54.596 F7800.000
G1 X53.084 Y47.427 F7800.000
G1 F1200
G1 X52.573 Y46.916 E57.50467
G1 X51.630 Y46.916 E57.56740
G1 X53.084 Y48.370 E57.70421
G1 X53.084 Y49.313 E57.76693
G1 X50.687 Y46.916 E57.99245
G1 X49.744 Y46.916 E58.05518
G1 X53.084 Y50.256 E58.36941
G1 X53.084 Y51.199 E58.43214
G1 X48.801 Y46.916 E58.83508
G1 X47.859 Y46.916 E58.89781
G1 X53.084 Y52.141 E59.38946
G1 X53.084 Y53.084 E59.45219
G1 X46.916 Y46.916 E60.03255
G1 X46.916 Y47.859 E60.09528
G1 X52.141 Y53.084 E60.58693
G1 X51.199 Y53.084 E60.64966
G1 X46.916 Y48.801 E61.05260
G1 X46.916 Y49.744 E61.11533
G1 X50.256 Y53.084 E61.42956
G1 X49.313 Y53.084 E61.49229
G1 X46.916 Y50.687 E61.71781
G1 X46.916 Y51.630 E61.78054
G1 X48.370 Y53.084 E61.91735
G1 X47.427 Y53.084 E61.98008
G1 X46.916 Y52.573 E62.02818
G1 Z1.550 F7800.000
G1 X53.486 Y53.486 F7800.000
G1 F900
G1 X46.514 Y53.486 E62.48527
G1 X46.514 Y46.514 E62.94236
G1 X53.486 Y46.514 E63.39944
G1 X53.486 Y53.411 E63.85162
G1 X54.143 Y54.143 F7800.000
G1 F900
G1 X45.857 Y54.143 E64.39487
G1 X45.857 Y45.857 E64.93812
G1 X54.143 Y45.857 E65.48137
G1 X54.143 Y54.068 E66.01970
G1 X54.725 Y54.725 F7800.000
G1 F900
G1 X45.275 Y54.725 E66.49784
G1 X45.275 Y45.275 E66.97598
G1 X54.725 Y45.275 E67.45411
G1 X54.725 Y54.650 E67.92846
G1 X54.242 Y54.596 F7800.000
G1 X52.573 Y53.084 F7800.000
G1 F1200
G1 X53.084 Y52.573 E67.97656
G1 X53.084 Y51.630 E68.03928
G1 X51.630 Y53.084 E68.17609
G1 X50.687 Y53.084 E68.23882
G1 X53.084 Y50.687 E68.46434
G1 X53.084 Y49.744 E68.52707
G1 X49.744 Y53.084 E68.84130
G1 X48.801 Y53.084 E68.90403
G1 X53.084 Y48.801 E69.30697
G1 X53.084 Y47.859 E69.36969
G1 X47.859 Y53.084 E69.86135
G1 X46.916 Y53.084 E69.92407
G1 X53.084 Y46.916 E70.50444
G1 X52.141 Y46.916 E70.56716
G1 X46.916 Y52.141 E71.05882
G1 X46.916 Y51.199 E71.12155
G1 X51.199 Y46.916 E71.52449
G1 X50.256 Y46.916 E71.58722
G1 X46.916 Y50.256 E71.90145
G1 X46.916 Y49.313 E71.96418
G1 X49.313 Y46.916 E72.18970
G1 X48.370 Y46.916 E72.25242
G1 X46.916 Y48.370 E72.38923
G1 X46.916 Y47.427 E72.45196
G1 X47.427 Y46.916 E72.50006
G1 Z1.750 F7800.000
G1 X53.486 Y53.486 F7800.000
G1 F900
G1 X46.514 Y53.486 E72.95715
G1 X46.514 Y46.514 E73.41424
G1 X53.486 Y46.514 E73.87133
G1 X53.486 Y53.411 E74.32350
G1 X54.143 Y54.143 F7800.000
G1 F900
G1 X45.857 Y54.143 E74.86675
G1 X45.857 Y45.857 E75.41000
G1 X54.143 Y45.857 E75.95325
G1 X54.143 Y54.068 E76.49158
G1 X54.725 Y54.725 F7800.000
G1 F900
G1 X45.275 Y54.725 E76.96972
G1 X45.275 Y45.275 E77.44786
G1 X54.725 Y45.275 E77.92600
G1 X54.725 Y54.650 E78.40034
G1 X54.242 Y54.596 F7800.000
G1 X53.084 Y47.427 F7800.000
G1 F1200
G1 X52.573 Y46.916 E78.44844
G1 X51.630 Y46.916 E78.51117
G1 X53.084 Y48.370 E78.64798
G1 X53.084 Y49.313 E78.71070
G1 X50.687 Y46.916 E78.93622
G1 X49.744 Y46.916 E78.99895
G1 X53.084 Y50.256 E79.31318
G1 X53.084 Y51.199 E79.37591
G1 X48.801 Y46.916 E79.77885
G1 X47.859 Y46.916 E79.84158
G1 X53.084 Y52.141 E80.33323
G1 X53.084 Y53.084 E80.39596
G1 X46.916 Y46.916 E80.97632
G1 X46.916 Y47.859 E81.03905
G1 X52.141 Y53.084 E81.53070
G1 X51.199 Y53.084 E81.59343
G1 X46.916 Y48.801 E81.99637
G1 X46.916 Y49.744 E82.05910
G1 X50.256 Y53.084 E82.37333
G1 X49.313 Y53.084 E82.43606
G1 X46.916 Y50.687 E82.66158
G1 X46.916 Y51.630 E82.72431
G1 X48.370 Y53.084 E82.86112
G1 X47.427 Y53.084 E82.92385
G1 X46.916 Y52.573 E82.97195
G1 Z1.950 F7800.000
G1 X53.486 Y53.486 F7800.000
G1 F900
G1 X46.514 Y53.486 E83.42903
G1 X46.514 Y46.514 E83.88612
G1 X53.486 Y46.514 E84.34321
G1 X53.486 Y53.411 E84.79538
G1 X54.143 Y54.143 F7800.000
G1 F900
G1 X45.857 Y54.143 E85.33864
G1 X45.857 Y45.857 E85.88189
G1 X54.143 Y45.857 E86.42514
G1 X54.143 Y54.068 E86.96347
G1 X54.725 Y54.725 F7800.000
G1 F900
G1 X45.275 Y54.725 E87.44161
G1 X45.275 Y45.275 E87.91974
G1 X54.725 Y45.275 E88.39788
G1 X54.725 Y54.650 E88.87223
G1 X54.242 Y54.596 F7800.000
G1 X52.573 Y53.084 F7800.000
G1 F1200
G1 X53.084 Y52.573 E88.92032
G1 X53.084 Y51.630 E88.98305
G1 X51.630 Y53.084 E89.11986
G1 X50.687 Y53.084 E89.18259
G1 X53.084 Y50.687 E89.40811
G1 X53.084 Y49.744 E89.47084
G1 X49.744 Y53.084 E89.78507
G1 X48.801 Y53.084 E89.84779
G1 X53.084 Y48.801 E90.25074
G1 X53.084 Y47.859 E90.31346
G1 X47.859 Y53.084 E90.80511
G1 X46.916 Y53.084 E90.86784
G1 X53.084 Y46.916 E91.44821
G1 X52.141 Y46.916 E91.51093
G1 X46.916 Y52.141 E92.00259
G1 X46.916 Y51.199 E92.06531
G1 X51.199 Y46.916 E92.46826
G1 X50.256 Y46.916 E92.53098
G1 X46.916 Y50.256 E92.84522
G1 X46.916 Y49.313 E92.90794
G1 X49.313 Y46.916 E93.13346
G1 X48.370 Y46.916 E93.19619
G1 X46.916 Y48.370 E93.33300
G1 X46.916 Y47.427 E93.39573
G1 X47.427 Y46.916 E93.44383
G1 Z2.150 F7800.000
G1 X53.486 Y53.486 F7800.000
G1 F900
G1 X46.514 Y53.486 E93.90092
G1 X46.514 Y46.514 E94.35801
G1 X53.486 Y46.514 E94.81510
G1 X53.486 Y53.411 E95.26727
G1 X54.143 Y54.143 F7800.000
G1 F900
G1 X45.857 Y54.143 E95.81052
G1 X45.857 Y45.857 E96.35377
G1 X54.143 Y45.857 E96.89702
G1 X54.143 Y54.068 E97.43535
G1 X54.725 Y54.725 F7800.000
G1 F900
G1 X45.275 Y54.725 E97.91349
G1 X45.275 Y45.275 E98.39163
G1 X54.725 Y45.275 E98.86977
G1 X54.725 Y54.650 E99.34411
G1 X54.242 Y54.596 F7800.000
G1 X53.084 Y47.427 F7800.000
G1 F1200
G1 X52.573 Y46.916 E99.39221
G1 X51.630 Y46.916 E99.45494
G1 X53.084 Y48.370 E99.59174
G1 X53.084 Y49.313 E99.65447
G1 X50.687 Y46.916 E99.87999
G1 X49.744 Y46.916 E99.94272
G1 X53.084 Y50.256 E100.25695
G1 X53.084 Y51.199 E100.31968
G1 X48.801 Y46.916 E100.72262
G1 X47.859 Y46.916 E100.78535
G1 X53.084 Y52.141 E101.27700
G1 X53.084 Y53.084 E101.33973
G1 X46.916 Y46.916 E101.92009
G1 X46.916 Y47.859 E101.98282
G1 X52.141 Y53.084 E102.47447
G1 X51.199 Y53.084 E102.53720
G1 X46.916 Y48.801 E102.94014
G1 X46.916 Y49.744 E103.00287
G1 X50.256 Y53.084 E103.31710
G1 X49.313 Y53.084 E103.37983
G1 X46.916 Y50.687 E103.60535
G1 X46.916 Y51.630 E103.66808
G1 X48.370 Y53.084 E103.80489
G1 X47.427 Y53.084 E103.86761
G1 X46.916 Y52.573 E103.91571
G1 Z2.350 F7800.000
G1 X53.486 Y53.486 F7800.000
G1 F900
G1 X46.514 Y53.486 E104.37280
G1 X46.514 Y46.514 E104.82989
G1 X53.486 Y46.514 E105.28698
G1 X53.486 Y53.411 E105.73915
G1 X54.143 Y54.143 F7800.000
G1 F900
G1 X45.857 Y54.143 E106.28240
G1 X45.857 Y45.857 E106.82565
G1 X54.143 Y45.857 E107.36890
G1 X54.143 Y54.068 E107.90724
G1 X54.725 Y54.725 F7800.000
G1 F900
G1 X45.275 Y54.725 E108.38538
G1 X45.275 Y45.275 E108.86351
G1 X54.725 Y45.275 E109.34165
G1 X54.725 Y54.650 E109.81599
G1 X54.242 Y54.596 F7800.000
G1 X52.573 Y53.084 F7800.000
G1 F1200
G1 X53.084 Y52.573 E109.86409
G1 X53.084 Y51.630 E109.92682
G1 X51.630 Y53.084 E110.06363
G1 X50.687 Y53.084 E110.12636
G1 X53.084 Y50.687 E110.35188
G1 X53.084 Y49.744 E110.41460
G1 X49.744 Y53.084 E110.72883
G1 X48.801 Y53.084 E110.79156
G1 X53.084 Y48.801 E111.19450
G1 X53.084 Y47.859 E111.25723
G1 X47.859 Y53.084 E111.74888
G1 X46.916 Y53.084 E111.81161
G1 X53.084 Y46.916 E112.39197
G1 X52.141 Y46.916 E112.45470
G1 X46.916 Y52.141 E112.94635
G1 X46.916 Y51.199 E113.00908
G1 X51.199 Y46.916 E113.41202
G1 X50.256 Y46.916 E113.47475
G1 X46.916 Y50.256 E113.78898
G1 X46.916 Y49.313 E113.85171
G1 X49.313 Y46.916 E114.07723
G1 X48.370 Y46.916 E114.13996
G1 X46.916 Y48.370 E114.27677
G1 X46.916 Y47.427 E114.33950
G1 X47.427 Y46.916 E114.38760
G1 Z2.550 F7800.000
G1 X53.486 Y53.486 F7800.000
G1 F900
G1 X46.514 Y53.486 E114.84469
G1 X46.514 Y46.514 E115.30178
G1 X53.486 Y46.514 E115.75887
G1 X53.486 Y53.411 E116.21104
G1 X54.143 Y54.143 F7800.000
G1 F900
G1 X45.857 Y54.143 E116.75429
G1 X45.857 Y45.857 E117.29754
G1 X54.143 Y45.857 E117.84079
G1 X54.143 Y54.068 E118.37912
G1 X54.725 Y54.725 F7800.000
G1 F900
G1 X45.275 Y54.725 E118.85726
G1 X45.275 Y45.275 E119.33540
G1 X54.725 Y45.275 E119.81353
