; generated by Slic3r 1.3.0 on 2020-02-22 at 23:44:08

; external perimeters extrusion width = 0.55mm (3.04mm^3/s)
; perimeters extrusion width = 0.70mm (7.88mm^3/s)
; infill extrusion width = 0.62mm (9.31mm^3/s)
; solid infill extrusion width = 0.70mm (2.63mm^3/s)
; top infill extrusion width = 0.70mm (1.97mm^3/s)

M107
M104 S200 ; set temperature
G28 ; home all axes
G1 Z5 F5000 ; lift nozzle

; Filament gcode

M109 S200 ; set temperature and wait for it to be reached
G21 ; set units to millimeters
G90 ; use absolute coordinates
M82 ; use absolute distances for extrusion
G92 E0
G1 Z0.350 F7800.000
G1 E-2.00000 F2400.00000
G92 E0
G1 X39.915 Y40.753 F7800.000
G1 E2.00000 F2400.00000
G1 F1800
G1 X41.668 Y39.274 E2.22940
G1 X43.820 Y38.481 E2.45879
G1 X45.000 Y38.375 E2.57727
G1 X55.000 Y38.375 E3.57750
G1 X57.259 Y38.772 E3.80690
G1 X59.247 Y39.915 E4.03629
G1 X60.726 Y41.668 E4.26569
G1 X61.519 Y43.820 E4.49509
G1 X61.625 Y45.000 E4.61356
G1 X61.625 Y55.000 E5.61379
G1 X61.228 Y57.259 E5.84319
G1 X60.085 Y59.247 E6.07258
G1 X58.332 Y60.726 E6.30198
G1 X56.180 Y61.519 E6.53138
G1 X55.000 Y61.625 E6.64986
G1 X45.000 Y61.625 E7.65008
G1 X42.741 Y61.228 E7.87948
G1 X40.753 Y60.085 E8.10888
G1 X39.274 Y58.332 E8.33827
G1 X38.481 Y56.180 E8.56767
G1 X38.375 Y55.000 E8.68615
G1 X38.375 Y45.000 E9.68637
G1 X38.772 Y42.741 E9.91577
G1 X39.878 Y40.818 E10.13767
G1 E8.13767 F2400.00000
G92 E0
G1 X53.400 Y53.400 F7800.000
G1 E2.00000 F2400.00000
G1 F1800
G1 X46.600 Y53.400 E2.68020
G1 X46.600 Y46.600 E3.36040
G1 X53.400 Y46.600 E4.04059
G1 X53.400 Y53.325 E4.71329
G1 X54.025 Y54.025 F7800.000
G1 F1800
G1 X45.975 Y54.025 E5.51849
G1 X45.975 Y45.975 E6.32370
G1 X54.025 Y45.975 E7.12890
G1 X54.025 Y53.950 E7.92660
G1 X54.650 Y54.650 F7800.000
G1 F1800
G1 X45.350 Y54.650 E8.85681
G1 X45.350 Y45.350 E9.78702
G1 X54.650 Y45.350 E10.71723
G1 X54.650 Y54.575 E11.63994
G1 X54.167 Y54.521 F7800.000
G1 E9.63994 F2400.00000
G92 E0
G1 X52.532 Y53.018 F7800.000
G1 E2.00000 F2400.00000
G1 F1800
G1 X53.018 Y52.532 E2.07199
G1 X53.018 Y51.607 E2.16885
G1 X51.607 Y53.018 E2.37783
G1 X50.682 Y53.018 E2.47469
G1 X53.018 Y50.682 E2.82065
G1 X53.018 Y49.757 E2.91751
G1 X49.757 Y53.018 E3.40045
G1 X48.832 Y53.018 E3.49731
G1 X53.018 Y48.832 E4.11724
G1 X53.018 Y47.907 E4.21410
G1 X47.907 Y53.018 E4.97100
G1 X46.982 Y53.018 E5.06787
G1 X53.018 Y46.982 E5.96175
G1 X52.093 Y46.982 E6.05862
G1 X46.982 Y52.093 E6.81552
G1 X46.982 Y51.168 E6.91239
G1 X51.168 Y46.982 E7.53231
G1 X50.243 Y46.982 E7.62917
G1 X46.982 Y50.243 E8.11212
G1 X46.982 Y49.318 E8.20898
G1 X49.318 Y46.982 E8.55494
G1 X48.393 Y46.982 E8.65180
G1 X46.982 Y48.393 E8.86078
G1 X46.982 Y47.468 E8.95764
G1 X47.468 Y46.982 E9.02963
M104 S220 ; set temperature
G1 Z0.550 F7800.000
G1 X53.486 Y53.486 F7800.000
G1 F900
G1 X46.514 Y53.486 E9.44863
G1 X46.514 Y46.514 E9.86763
G1 X53.486 Y46.514 E10.28663
G1 X53.486 Y53.411 E10.70112
G1 X54.143 Y54.143 F7800.000
G1 F900
G1 X45.857 Y54.143 E11.19910
G1 X45.857 Y45.857 E11.69708
G1 X54.143 Y45.857 E12.19506
G1 X54.143 Y54.068 E12.68853
G1 X54.725 Y54.725 F7800.000
G1 F900
G1 X45.275 Y54.725 E13.12682
G1 X45.275 Y45.275 E13.56511
G1 X54.725 Y45.275 E14.00341
G1 X54.725 Y54.650 E14.43822
G1 X54.242 Y54.596 F7800.000
G1 X53.084 Y47.427 F7800.000
G1 F1200
G1 X52.573 Y46.916 E14.48231
G1 X51.630 Y46.916 E14.53981
G1 X53.084 Y48.370 E14.66522
G1 X53.084 Y49.313 E14.72272
G1 X50.687 Y46.916 E14.92945
G1 X49.744 Y46.916 E14.98695
G1 X53.084 Y50.256 E15.27500
G1 X53.084 Y51.199 E15.33250
G1 X48.801 Y46.916 E15.70187
G1 X47.859 Y46.916 E15.75937
G1 X53.084 Y52.141 E16.21005
G1 X53.084 Y53.084 E16.26755
G1 X46.916 Y46.916 E16.79956
G1 X46.916 Y47.859 E16.85706
G1 X52.141 Y53.084 E17.30774
G1 X51.199 Y53.084 E17.36524
G1 X46.916 Y48.801 E17.73461
G1 X46.916 Y49.744 E17.79211
G1 X50.256 Y53.084 E18.08016
G1 X49.313 Y53.084 E18.13766
G1 X46.916 Y50.687 E18.34439
G1 X46.916 Y51.630 E18.40189
G1 X48.370 Y53.084 E18.52730
G1 X47.427 Y53.084 E18.58480
G1 X46.916 Y52.573 E18.62889
G1 Z0.750 F7800.000
G1 X53.486 Y53.486 F7800.000
G1 F900
G1 X46.514 Y53.486 E19.04789
G1 X46.514 Y46.514 E19.46689
G1 X53.486 Y46.514 E19.88588
G1 X53.486 Y53.411 E20.30038
G1 X54.143 Y54.143 F7800.000
G1 F900
G1 X45.857 Y54.143 E20.79836
G1 X45.857 Y45.857 E21.29633
G1 X54.143 Y45.857 E21.79431
G1 X54.143 Y54.068 E22.28779
G1 X54.725 Y54.725 F7800.000
G1 F900
G1 X45.275 Y54.725 E22.72608
G1 X45.275 Y45.275 E23.16437
G1 X54.725 Y45.275 E23.60267
G1 X54.725 Y54.650 E24.03748
G1 X54.242 Y54.596 F7800.000
G1 X52.573 Y53.084 F7800.000
G1 F1200
G1 X53.084 Y52.573 E24.08157
G1 X53.084 Y51.630 E24.13907
G1 X51.630 Y53.084 E24.26448
G1 X50.687 Y53.084 E24.32198
G1 X53.084 Y50.687 E24.52871
G1 X53.084 Y49.744 E24.58621
G1 X49.744 Y53.084 E24.87426
G1 X48.801 Y53.084 E24.93176
G1 X53.084 Y48.801 E25.30112
G1 X53.084 Y47.859 E25.35862
G1 X47.859 Y53.084 E25.80931
G1 X46.916 Y53.084 E25.86681
G1 X53.084 Y46.916 E26.39881
G1 X52.141 Y46.916 E26.45631
G1 X46.916 Y52.141 E26.90700
G1 X46.916 Y51.199 E26.96450
G1 X51.199 Y46.916 E27.33387
G1 X50.256 Y46.916 E27.39137
G1 X46.916 Y50.256 E27.67942
G1 X46.916 Y49.313 E27.73692
G1 X49.313 Y46.916 E27.94364
G1 X48.370 Y46.916 E28.00115
G1 X46.916 Y48.370 E28.12656
G1 X46.916 Y47.427 E28.18406
G1 X47.427 Y46.916 E28.22815
M106 S239.7
G1 Z0.950 F7800.000
G1 X53.486 Y53.486 F7800.000
G1 F900
G1 X46.514 Y53.486 E28.64714
G1 X46.514 Y46.514 E29.06614
G1 X53.486 Y46.514 E29.48514
G1 X53.486 Y53.411 E29.89963
G1 X54.143 Y54.143 F7800.000
G1 F900
G1 X45.857 Y54.143 E30.39761
G1 X45.857 Y45.857 E30.89559
G1 X54.143 Y45.857 E31.39357
G1 X54.143 Y54.068 E31.88704
G1 X54.725 Y54.725 F7800.000
G1 F900
G1 X45.275 Y54.725 E32.32534
G1 X45.275 Y45.275 E32.76363
G1 X54.725 Y45.275 E33.20192
G1 X54.725 Y54.650 E33.63674
G1 X54.242 Y54.596 F7800.000
G1 X53.084 Y47.427 F7800.000
G1 F1200
G1 X52.573 Y46.916 E33.68083
G1 X51.630 Y46.916 E33.73833
G1 X53.084 Y48.370 E33.86374
G1 X53.084 Y49.313 E33.92124
G1 X50.687 Y46.916 E34.12796
G1 X49.744 Y46.916 E34.18546
G1 X53.084 Y50.256 E34.47351
G1 X53.084 Y51.199 E34.53101
G1 X48.801 Y46.916 E34.90037
G1 X47.859 Y46.916 E34.95787
G1 X53.084 Y52.141 E35.40855
G1 X53.084 Y53.084 E35.46605
G1 X46.916 Y46.916 E35.99805
G1 X46.916 Y47.859 E36.05555
G1 X52.141 Y53.084 E36.50623
G1 X51.199 Y53.084 E36.56373
G1 X46.916 Y48.801 E36.93310
G1 X46.916 Y49.744 E36.99060
G1 X50.256 Y53.084 E37.27864
G1 X49.313 Y53.084 E37.33615
G1 X46.916 Y50.687 E37.54287
G1 X46.916 Y51.630 E37.60037
G1 X48.370 Y53.084 E37.72578
G1 X47.427 Y53.084 E37.78328
G1 X46.916 Y52.573 E37.82737
G1 Z1.150 F7800.000
G1 X53.486 Y53.486 F7800.000
G1 F900
G1 X46.514 Y53.486 E38.24637
G1 X46.514 Y46.514 E38.66537
G1 X53.486 Y46.514 E39.08437
G1 X53.486 Y53.411 E39.49886
G1 X54.143 Y54.143 F7800.000
G1 F900
G1 X45.857 Y54.143 E39.99684
G1 X45.857 Y45.857 E40.49482
G1 X54.143 Y45.857 E40.99280
G1 X54.143 Y54.068 E41.48627
G1 X54.725 Y54.725 F7800.000
G1 F900
G1 X45.275 Y54.725 E41.92456
G1 X45.275 Y45.275 E42.36286
G1 X54.725 Y45.275 E42.80115
G1 X54.725 Y54.650 E43.23596
G1 X54.242 Y54.596 F7800.000
G1 X52.573 Y53.084 F7800.000
G1 F1200
G1 X53.084 Y52.573 E43.28005
G1 X53.084 Y51.630 E43.33755
G1 X51.630 Y53.084 E43.46296
G1 X50.687 Y53.084 E43.52046
G1 X53.084 Y50.687 E43.72719
G1 X53.084 Y49.744 E43.78469
G1 X49.744 Y53.084 E44.07273
G1 X48.801 Y53.084 E44.13024
G1 X53.084 Y48.801 E44.49960
G1 X53.084 Y47.859 E44.55710
G1 X47.859 Y53.084 E45.00778
G1 X46.916 Y53.084 E45.06528
G1 X53.084 Y46.916 E45.59728
G1 X52.141 Y46.916 E45.65478
G1 X46.916 Y52.141 E46.10546
G1 X46.916 Y51.199 E46.16296
G1 X51.199 Y46.916 E46.53233
G1 X50.256 Y46.916 E46.58983
G1 X46.916 Y50.256 E46.87787
G1 X46.916 Y49.313 E46.93537
G1 X49.313 Y46.916 E47.14210
G1 X48.370 Y46.916 E47.19960
G1 X46.916 Y48.370 E47.32501
G1 X46.916 Y47.427 E47.38251
G1 X47.427 Y46.916 E47.42660
G1 Z1.350 F7800.000
G1 X53.486 Y53.486 F7800.000
G1 F900
G1 X46.514 Y53.486 E47.84560
G1 X46.514 Y46.514 E48.26460
G1 X53.486 Y46.514 E48.68360
G1 X53.486 Y53.411 E49.09809
G1 X54.143 Y54.143 F7800.000
G1 F900
G1 X45.857 Y54.143 E49.59607
G1 X45.857 Y45.857 E50.09405
G1 X54.143 Y45.857 E50.59203
G1 X54.143 Y54.068 E51.08550
G1 X54.725 Y54.725 F7800.000
G1 F900
G1 X45.275 Y54.725 E51.52379
G1 X45.275 Y45.275 E51.96208
G1 X54.725 Y45.275 E52.40038
G1 X54.725 Y54.650 E52.83519
G1 X54.242 Y54.596 F7800.000
G1 X53.084 Y47.427 F7800.000
G1 F1200
G1 X52.573 Y46.916 E52.87928
G1 X51.630 Y46.916 E52.93678
G1 X53.084 Y48.370 E53.06219
G1 X53.084 Y49.313 E53.11969
G1 X50.687 Y46.916 E53.32642
G1 X49.744 Y46.916 E53.38392
G1 X53.084 Y50.256 E53.67196
G1 X53.084 Y51.199 E53.72946
G1 X48.801 Y46.916 E54.09882
G1 X47.859 Y46.916 E54.15633
G1 X53.084 Y52.141 E54.60701
G1 X53.084 Y53.084 E54.66451
G1 X46.916 Y46.916 E55.19651
G1 X46.916 Y47.859 E55.25401
G1 X52.141 Y53.084 E55.70469
G1 X51.199 Y53.084 E55.76219
G1 X46.916 Y48.801 E56.13155
G1 X46.916 Y49.744 E56.18905
G1 X50.256 Y53.084 E56.47710
G1 X49.313 Y53.084 E56.53460
G1 X46.916 Y50.687 E56.74133
G1 X46.916 Y51.630 E56.79883
G1 X48.370 Y53.084 E56.92424
G1 X47.427 Y53.084 E56.98174
G1 X46.916 Y52.573 E57.02583
G1 Z1.550 F7800.000
G1 X53.486 Y53.486 F7800.000
G1 F900
G1 X46.514 Y53.486 E57.44483
G1 X46.514 Y46.514 E57.86383
G1 X53.486 Y46.514 E58.28282
G1 X53.486 Y53.411 E58.69731
G1 X54.143 Y54.143 F7800.000
G1 F900
G1 X45.857 Y54.143 E59.19529
G1 X45.857 Y45.857 E59.69327
G1 X54.143 Y45.857 E60.19125
G1 X54.143 Y54.068 E60.68472
G1 X54.725 Y54.725 F7800.000
G1 F900
G1 X45.275 Y54.725 E61.12302
G1 X45.275 Y45.275 E61.56131
G1 X54.725 Y45.275 E61.99960
G1 X54.725 Y54.650 E62.43442
G1 X54.242 Y54.596 F7800.000
G1 X52.573 Y53.084 F7800.000
G1 F1200
G1 X53.084 Y52.573 E62.47851
G1 X53.084 Y51.630 E62.53601
G1 X51.630 Y53.084 E62.66142
G1 X50.687 Y53.084 E62.71892
G1 X53.084 Y50.687 E62.92564
G1 X53.084 Y49.744 E62.98314
G1 X49.744 Y53.084 E63.27119
G1 X48.801 Y53.084 E63.32869
G1 X53.084 Y48.801 E63.69805
G1 X53.084 Y47.859 E63.75555
G1 X47.859 Y53.084 E64.20623
G1 X46.916 Y53.084 E64.26373
G1 X53.084 Y46.916 E64.79573
G1 X52.141 Y46.916 E64.85323
G1 X46.916 Y52.141 E65.30392
G1 X46.916 Y51.199 E65.36142
G1 X51.199 Y46.916 E65.73078
G1 X50.256 Y46.916 E65.78828
G1 X46.916 Y50.256 E66.07633
G1 X46.916 Y49.313 E66.13383
G1 X49.313 Y46.916 E66.34055
G1 X48.370 Y46.916 E66.39806
G1 X46.916 Y48.370 E66.52346
G1 X46.916 Y47.427 E66.58096
G1 X47.427 Y46.916 E66.62506
G1 Z1.750 F7800.000
G1 X53.486 Y53.486 F7800.000
G1 F900
G1 X46.514 Y53.486 E67.04405
G1 X46.514 Y46.514 E67.46305
G1 X53.486 Y46.514 E67.88205
G1 X53.486 Y53.411 E68.29654
G1 X54.143 Y54.143 F7800.000
G1 F900
G1 X45.857 Y54.143 E68.79452
G1 X45.857 Y45.857 E69.29250
G1 X54.143 Y45.857 E69.79048
G1 X54.143 Y54.068 E70.28395
G1 X54.725 Y54.725 F7800.000
G1 F900
G1 X45.275 Y54.725 E70.72224
G1 X45.275 Y45.275 E71.16054
G1 X54.725 Y45.275 E71.59883
G1 X54.725 Y54.650 E72.03365
G1 X54.242 Y54.596 F7800.000
G1 X53.084 Y47.427 F7800.000
G1 F1200
G1 X52.573 Y46.916 E72.07774
G1 X51.630 Y46.916 E72.13524
G1 X53.084 Y48.370 E72.26064
G1 X53.084 Y49.313 E72.31814
G1 X50.687 Y46.916 E72.52487
G1 X49.744 Y46.916 E72.58237
G1 X53.084 Y50.256 E72.87042
G1 X53.084 Y51.199 E72.92792
G1 X48.801 Y46.916 E73.29728
G1 X47.859 Y46.916 E73.35478
G1 X53.084 Y52.141 E73.80546
G1 X53.084 Y53.084 E73.86296
G1 X46.916 Y46.916 E74.39496
G1 X46.916 Y47.859 E74.45246
G1 X52.141 Y53.084 E74.90314
G1 X51.199 Y53.084 E74.96064
G1 X46.916 Y48.801 E75.33001
G1 X46.916 Y49.744 E75.38751
G1 X50.256 Y53.084 E75.67555
G1 X49.313 Y53.084 E75.73305
G1 X46.916 Y50.687 E75.93978
G1 X46.916 Y51.630 E75.99728
G1 X48.370 Y53.084 E76.12269
G1 X47.427 Y53.084 E76.18019
G1 X46.916 Y52.573 E76.22428
G1 Z1.950 F7800.000
G1 X53.486 Y53.486 F7800.000
G1 F900
G1 X46.514 Y53.486 E76.64328
G1 X46.514 Y46.514 E77.06228
G1 X53.486 Y46.514 E77.48128
G1 X53.486 Y53.411 E77.89577
G1 X54.143 Y54.143 F7800.000
G1 F900
G1 X45.857 Y54.143 E78.39375
G1 X45.857 Y45.857 E78.89173
G1 X54.143 Y45.857 E79.38971
G1 X54.143 Y54.068 E79.88318
G1 X54.725 Y54.725 F7800.000
G1 F900
G1 X45.275 Y54.725 E80.32147
G1 X45.275 Y45.275 E80.75977
G1 X54.725 Y45.275 E81.19806
G1 X54.725 Y54.650 E81.63287
G1 X54.242 Y54.596 F7800.000
G1 X52.573 Y53.084 F7800.000
G1 F1200
G1 X53.084 Y52.573 E81.67696
G1 X53.084 Y51.630 E81.73446
G1 X51.630 Y53.084 E81.85987
G1 X50.687 Y53.084 E81.91737
G1 X53.084 Y50.687 E82.12410
G1 X53.084 Y49.744 E82.18160
G1 X49.744 Y53.084 E82.46964
G1 X48.801 Y53.084 E82.52714
G1 X53.084 Y48.801 E82.89651
G1 X53.084 Y47.859 E82.95401
G1 X47.859 Y53.084 E83.40469
G1 X46.916 Y53.084 E83.46219
G1 X53.084 Y46.916 E83.99419
G1 X52.141 Y46.916 E84.05169
G1 X46.916 Y52.141 E84.50237
G1 X46.916 Y51.199 E84.55987
G1 X51.199 Y46.916 E84.92923
G1 X50.256 Y46.916 E84.98674
G1 X46.916 Y50.256 E85.27478
G1 X46.916 Y49.313 E85.33228
G1 X49.313 Y46.916 E85.53901
G1 X48.370 Y46.916 E85.59651
G1 X46.916 Y48.370 E85.72192
G1 X46.916 Y47.427 E85.77942
G1 X47.427 Y46.916 E85.82351
G1 Z2.150 F7800.000
G1 X53.486 Y53.486 F7800.000
G1 F900
G1 X46.514 Y53.486 E86.24251
G1 X46.514 Y46.514 E86.66151
G1 X53.486 Y46.514 E87.08051
G1 X53.486 Y53.411 E87.49500
G1 X54.143 Y54.143 F7800.000
G1 F900
G1 X45.857 Y54.143 E87.99298
G1 X45.857 Y45.857 E88.49096
G1 X54.143 Y45.857 E88.98893
G1 X54.143 Y54.068 E89.48241
G1 X54.725 Y54.725 F7800.000
G1 F900
G1 X45.275 Y54.725 E89.92070
G1 X45.275 Y45.275 E90.35899
G1 X54.725 Y45.275 E90.79729
G1 X54.725 Y54.650 E91.23210
G1 X54.242 Y54.596 F7800.000
G1 X53.084 Y47.427 F7800.000
G1 F1200
G1 X52.573 Y46.916 E91.27619
G1 X51.630 Y46.916 E91.33369
G1 X53.084 Y48.370 E91.45910
G1 X53.084 Y49.313 E91.51660
G1 X50.687 Y46.916 E91.72333
G1 X49.744 Y46.916 E91.78083
G1 X53.084 Y50.256 E92.06887
G1 X53.084 Y51.199 E92.12637
G1 X48.801 Y46.916 E92.49573
G1 X47.859 Y46.916 E92.55323
G1 X53.084 Y52.141 E93.00392
G1 X53.084 Y53.084 E93.06142
G1 X46.916 Y46.916 E93.59342
G1 X46.916 Y47.859 E93.65092
G1 X52.141 Y53.084 E94.10160
G1 X51.199 Y53.084 E94.15910
G1 X46.916 Y48.801 E94.52846
G1 X46.916 Y49.744 E94.58596
G1 X50.256 Y53.084 E94.87401
G1 X49.313 Y53.084 E94.93151
G1 X46.916 Y50.687 E95.13824
G1 X46.916 Y51.630 E95.19574
G1 X48.370 Y53.084 E95.32115
G1 X47.427 Y53.084 E95.37865
G1 X46.916 Y52.573 E95.42274
G1 Z2.350 F7800.000
G1 X53.486 Y53.486 F7800.000
G1 F900
G1 X46.514 Y53.486 E95.84174
G1 X46.514 Y46.514 E96.26073
G1 X53.486 Y46.514 E96.67973
G1 X53.486 Y53.411 E97.09422
G1 X54.143 Y54.143 F7800.000
G1 F900
G1 X45.857 Y54.143 E97.59220
G1 X45.857 Y45.857 E98.09018
G1 X54.143 Y45.857 E98.58816
G1 X54.143 Y54.068 E99.08163
G1 X54.725 Y54.725 F7800.000
G1 F900
G1 X45.275 Y54.725 E99.51993
G1 X45.275 Y45.275 E99.95822
G1 X54.725 Y45.275 E100.39651
G1 X54.725 Y54.650 E100.83133
G1 X54.242 Y54.596 F7800.000
G1 X52.573 Y53.084 F7800.000
G1 F1200
G1 X53.084 Y52.573 E100.87542
G1 X53.084 Y51.630 E100.93292
G1 X51.630 Y53.084 E101.05833
G1 X50.687 Y53.084 E101.11583
G1 X53.084 Y50.687 E101.32255
G1 X53.084 Y49.744 E101.38005
G1 X49.744 Y53.084 E101.66810
G1 X48.801 Y53.084 E101.72560
G1 X53.084 Y48.801 E102.09496
G1 X53.084 Y47.859 E102.15246
G1 X47.859 Y53.084 E102.60314
G1 X46.916 Y53.084 E102.66064
G1 X53.084 Y46.916 E103.19264
G1 X52.141 Y46.916 E103.25014
G1 X46.916 Y52.141 E103.70083
G1 X46.916 Y51.199 E103.75833
G1 X51.199 Y46.916 E104.12769
G1 X50.256 Y46.916 E104.18519
G1 X46.916 Y50.256 E104.47324
G1 X46.916 Y49.313 E104.53074
G1 X49.313 Y46.916 E104.73746
G1 X48.370 Y46.916 E104.79496
G1 X46.916 Y48.370 E104.92037
G1 X46.916 Y47.427 E104.97787
G1 X47.427 Y46.916 E105.02196
G1 Z2.550 F7800.000
G1 X53.486 Y53.486 F7800.000
G1 F900
G1 X46.514 Y53.486 E105.44096
G1 X46.514 Y46.514 E105.85996
G1 X53.486 Y46.514 E106.27896
G1 X53.486 Y53.411 E106.69345
G1 X54.143 Y54.143 F7800.000
G1 F900
G1 X45.857 Y54.143 E107.19143
G1 X45.857 Y45.857 E107.68941
G1 X54.143 Y45.857 E108.18739
G1 X54.143 Y54.068 E108.68086
G1 X54.725 Y54.725 F7800.000
G1 F900
G1 X45.275 Y54.725 E109.11915
G1 X45.275 Y45.275 E109.55745
G1 X54.725 Y45.275 E109.99574
G1 X54.725 Y54.650 E110.43056
G1 X54.242 Y54.596 F7800.000
